; generated by Slic3r 1.2.9 on 2018-09-11 at 15:53:13

; external perimeters extrusion width = 0.55mm
; perimeters extrusion width = 0.55mm
; infill extrusion width = 0.55mm
; solid infill extrusion width = 0.55mm
; top infill extrusion width = 0.55mm

; external perimeters extrusion width = 0.02mm
; perimeters extrusion width = 0.55mm
; infill extrusion width = 0.55mm
; solid infill extrusion width = 0.55mm
; top infill extrusion width = 0.55mm

M107 ; disable fan
M190 S95 ; set bed temperature
M104 T10  S230
G21     ; use millimeters
G90     ; absolute coordinates
G0 Z5 ; lift head to avoid collisions
G28 X0 Y0 ; home X and Y
G92 X0 Y0 ; reset origin: X and Y
G0 X220 Y90
G92 X0 Y0
M83          ; relative extruder coordinates
M109 S230  ;wait for temperture to come up.
M756 S0.2  ;set flowfor the first layer please


G21 ; set units to millimeters
G90 ; use absolute coordinates
M82 ; use absolute distances for extrusion
G92 E0 ; reset extrusion distance
T0 ; change extruder
G92 E0 ; reset extrusion distance
;announce new layer <0>
;---
M756 S0.2
M790 ;execute any new layer actions
;---
G1 Z0.200 F1800.000 ; move to next layer (0)
G1 E-4.00000 F2400.00000 ; retract
G92 E0 ; reset extrusion distance
G1 X86.200 Y99.058 F1800.000 ; move to first skirt point
G1 E4.00000 F2400.00000 ; unretract
G1 X86.922 Y98.471 E4.03919 F1800.000 ; skirt
G1 X87.668 Y97.917 E4.07840 ; skirt
G1 X88.438 Y97.395 E4.11762 ; skirt
G1 X89.230 Y96.908 E4.15682 ; skirt
G1 X90.275 Y96.335 E4.20708 ; skirt
G1 X91.112 Y95.929 E4.24629 ; skirt
G1 X91.965 Y95.559 E4.28550 ; skirt
G1 X92.834 Y95.228 E4.32471 ; skirt
G1 X93.716 Y94.934 E4.36391 ; skirt
G1 X94.611 Y94.680 E4.40312 ; skirt
G1 X95.515 Y94.464 E4.44233 ; skirt
G1 X96.428 Y94.288 E4.48154 ; skirt
G1 X97.348 Y94.152 E4.52074 ; skirt
G1 X98.273 Y94.057 E4.55995 ; skirt
G1 X99.201 Y94.002 E4.59916 ; skirt
G1 X100.131 Y93.987 E4.63837 ; skirt
G1 X101.061 Y94.013 E4.67757 F1800.000 ; skirt
G1 X101.988 Y94.080 E4.71678 ; skirt
G1 X102.912 Y94.187 E4.75599 ; skirt
G1 X103.830 Y94.334 E4.79520 ; skirt
G1 X104.741 Y94.521 E4.83441 ; skirt
G1 X105.643 Y94.747 E4.87361 ; skirt
G1 X106.534 Y95.013 E4.91282 ; skirt
G1 X107.413 Y95.317 E4.95203 ; skirt
G1 X108.277 Y95.660 E4.99123 ; skirt
G1 X109.126 Y96.040 E5.03044 ; skirt
G1 X109.957 Y96.456 E5.06965 ; skirt
G1 X110.770 Y96.908 E5.10886 ; skirt
G1 X111.562 Y97.396 E5.14807 ; skirt
G1 X112.332 Y97.917 E5.18727 ; skirt
G1 X113.078 Y98.471 E5.22648 ; skirt
G1 X113.800 Y99.058 E5.26569 ; skirt
G1 X114.495 Y99.675 E5.30490 ; skirt
G1 X115.163 Y100.322 E5.34410 ; skirt
G1 X115.802 Y100.998 E5.38331 ; skirt
G1 X116.411 Y101.701 E5.42252 ; skirt
G1 X116.988 Y102.430 E5.46173 ; skirt
G1 X117.534 Y103.183 E5.50094 ; skirt
G1 X118.045 Y103.959 E5.54014 ; skirt
G1 X118.523 Y104.757 E5.57935 ; skirt
G1 X118.965 Y105.575 E5.61856 ; skirt
G1 X119.371 Y106.412 E5.65777 ; skirt
G1 X119.741 Y107.265 E5.69697 ; skirt
G1 X120.072 Y108.134 E5.73618 ; skirt
G1 X120.366 Y109.016 E5.77539 ; skirt
G1 X120.620 Y109.911 E5.81460 ; skirt
G1 X120.836 Y110.815 E5.85380 ; skirt
G1 X121.012 Y111.728 E5.89301 ; skirt
G1 X121.113 Y112.388 E5.92116 ; skirt
G1 X121.220 Y113.312 E5.96036 ; skirt
G1 X121.287 Y114.239 E5.99957 ; skirt
G1 X121.313 Y115.169 E6.03878 ; skirt
G1 X121.298 Y116.099 E6.07799 ; skirt
G1 X121.243 Y117.027 E6.11720 ; skirt
G1 X121.147 Y117.953 E6.15644 ; skirt
G1 X121.012 Y118.872 E6.19561 ; skirt
G1 X120.836 Y119.785 E6.23482 ; skirt
G1 X120.620 Y120.689 E6.27403 ; skirt
G1 X120.366 Y121.584 E6.31324 ; skirt
G1 X120.072 Y122.466 E6.35244 ; skirt
G1 X119.741 Y123.335 E6.39165 ; skirt
G1 X119.371 Y124.188 E6.43086 ; skirt
G1 X118.965 Y125.025 E6.47006 ; skirt
G1 X118.523 Y125.843 E6.50927 ; skirt
G1 X118.045 Y126.641 E6.54848 ; skirt
G1 X117.533 Y127.417 E6.58770 ; skirt
G1 X116.988 Y128.170 E6.62689 ; skirt
G1 X116.410 Y128.900 E6.66613 ; skirt
G1 X115.802 Y129.602 E6.70531 ; skirt
G1 X115.163 Y130.278 E6.74452 ; skirt
G1 X114.495 Y130.925 E6.78372 ; skirt
G1 X113.800 Y131.542 E6.82295 ; skirt
G1 X113.078 Y132.129 E6.86214 ; skirt
G1 X112.332 Y132.683 E6.90136 ; skirt
G1 X111.562 Y133.204 E6.94056 ; skirt
G1 X110.770 Y133.692 E6.97978 ; skirt
G1 X109.957 Y134.144 E7.01898 ; skirt
G1 X109.125 Y134.561 E7.05821 ; skirt
G1 X108.277 Y134.940 E7.09739 ; skirt
G1 X107.413 Y135.283 E7.13659 ; skirt
G1 X106.534 Y135.587 E7.17582 ; skirt
G1 X105.643 Y135.853 E7.21501 ; skirt
G1 X104.741 Y136.079 E7.25423 ; skirt
G1 X103.830 Y136.266 E7.29342 ; skirt
G1 X102.912 Y136.413 E7.33263 ; skirt
G1 X101.988 Y136.520 E7.37184 ; skirt
G1 X101.060 Y136.587 E7.41106 ; skirt
G1 X100.131 Y136.613 E7.45027 ; skirt
G1 X99.201 Y136.598 E7.48946 ; skirt
G1 X98.273 Y136.543 E7.52867 ; skirt
G1 X97.348 Y136.448 E7.56788 ; skirt
G1 X96.428 Y136.312 E7.60708 ; skirt
G1 X95.515 Y136.136 E7.64629 ; skirt
G1 X94.611 Y135.920 E7.68550 ; skirt
G1 X93.716 Y135.666 E7.72471 ; skirt
G1 X92.834 Y135.372 E7.76391 ; skirt
G1 X91.965 Y135.041 E7.80312 ; skirt
G1 X91.112 Y134.671 E7.84233 ; skirt
G1 X90.275 Y134.265 E7.88154 ; skirt
G1 X89.457 Y133.823 E7.92074 ; skirt
G1 X88.659 Y133.345 E7.95996 ; skirt
G1 X87.883 Y132.834 E7.99917 ; skirt
G1 X87.130 Y132.288 E8.03837 ; skirt
G1 X86.400 Y131.710 E8.07760 ; skirt
G1 X85.698 Y131.102 E8.11678 ; skirt
G1 X85.022 Y130.463 E8.15600 ; skirt
G1 X84.375 Y129.795 E8.19521 ; skirt
G1 X83.758 Y129.100 E8.23442 ; skirt
G1 X83.171 Y128.378 E8.27361 ; skirt
G1 X82.617 Y127.632 E8.31284 ; skirt
G1 X82.095 Y126.862 E8.35204 ; skirt
G1 X81.608 Y126.070 E8.39126 ; skirt
G1 X81.156 Y125.257 E8.43046 ; skirt
G1 X80.739 Y124.426 E8.46967 ; skirt
G1 X80.360 Y123.577 E8.50887 ; skirt
G1 X80.017 Y122.713 E8.54807 ; skirt
G1 X79.713 Y121.834 E8.58728 ; skirt
G1 X79.447 Y120.943 E8.62650 ; skirt
G1 X79.221 Y120.041 E8.66569 ; skirt
G1 X79.034 Y119.130 E8.70490 ; skirt
G1 X78.887 Y118.212 E8.74412 ; skirt
G1 X78.780 Y117.288 E8.78333 ; skirt
G1 X78.713 Y116.360 E8.82253 ; skirt
G1 X78.687 Y115.430 E8.86176 ; skirt
G1 X78.702 Y114.501 E8.90094 ; skirt
G1 X78.757 Y113.573 E8.94014 ; skirt
G1 X78.852 Y112.648 E8.97935 ; skirt
G1 X78.988 Y111.728 E9.01856 ; skirt
G1 X79.164 Y110.815 E9.05777 ; skirt
G1 X79.380 Y109.911 E9.09697 ; skirt
G1 X79.634 Y109.016 E9.13618 ; skirt
G1 X79.928 Y108.134 E9.17539 ; skirt
G1 X80.259 Y107.265 E9.21460 ; skirt
G1 X80.629 Y106.412 E9.25380 ; skirt
G1 X81.035 Y105.575 E9.29302 ; skirt
G1 X81.477 Y104.757 E9.33222 ; skirt
G1 X81.955 Y103.959 E9.37143 ; skirt
G1 X82.466 Y103.183 E9.41063 ; skirt
G1 X83.012 Y102.430 E9.44984 ; skirt
G1 X83.589 Y101.701 E9.48905 ; skirt
G1 X84.198 Y100.998 E9.52826 ; skirt
G1 X84.837 Y100.322 E9.56748 ; skirt
G1 X85.505 Y99.675 E9.60667 ; skirt
G1 X86.144 Y99.107 E9.64273 ; skirt
G1 X86.478 Y99.488 F1800.000 ; move to first skirt point
G1 X87.239 Y98.867 E9.68415 F1800.000 ; skirt
G1 X87.968 Y98.326 E9.72243 ; skirt
G1 X88.720 Y97.817 E9.76072 ; skirt
G1 X89.493 Y97.342 E9.79899 ; skirt
G1 X90.286 Y96.901 E9.83725 ; skirt
G1 X91.098 Y96.494 E9.87553 ; skirt
G1 X91.927 Y96.124 E9.91382 ; skirt
G1 X92.771 Y95.790 E9.95208 ; skirt
G1 X93.629 Y95.493 E9.99035 ; skirt
G1 X94.499 Y95.234 E10.02863 ; skirt
G1 X95.380 Y95.013 E10.06690 ; skirt
G1 X96.269 Y94.831 E10.10519 ; skirt
G1 X97.166 Y94.688 E10.14347 ; skirt
G1 X98.067 Y94.584 E10.18175 ; skirt
G1 X98.973 Y94.519 E10.22002 ; skirt
G1 X100.120 Y94.494 E10.26840 ; skirt
G1 X101.028 Y94.519 E10.30668 F1800.000 ; skirt
G1 X101.933 Y94.584 E10.34495 ; skirt
G1 X102.835 Y94.688 E10.38323 ; skirt
G1 X103.731 Y94.831 E10.42150 ; skirt
G1 X104.620 Y95.013 E10.45978 ; skirt
G1 X105.501 Y95.234 E10.49805 ; skirt
G1 X106.371 Y95.493 E10.53633 ; skirt
G1 X107.229 Y95.790 E10.57460 ; skirt
G1 X108.073 Y96.124 E10.61288 ; skirt
G1 X108.902 Y96.494 E10.65115 ; skirt
G1 X109.714 Y96.901 E10.68943 ; skirt
G1 X110.299 Y97.222 E10.71758 ; skirt
G1 X111.078 Y97.688 E10.75585 ; skirt
G1 X111.835 Y98.188 E10.79412 ; skirt
G1 X112.570 Y98.721 E10.83240 ; skirt
G1 X113.282 Y99.285 E10.87068 ; skirt
G1 X113.968 Y99.879 E10.90895 ; skirt
G1 X114.627 Y100.503 E10.94722 ; skirt
G1 X115.258 Y101.155 E10.98550 ; skirt
G1 X115.861 Y101.835 E11.02379 ; skirt
G1 X116.433 Y102.539 E11.06205 ; skirt
G1 X116.974 Y103.268 E11.10033 ; skirt
G1 X117.483 Y104.020 E11.13860 ; skirt
G1 X117.958 Y104.793 E11.17688 ; skirt
G1 X118.399 Y105.586 E11.21515 ; skirt
G1 X118.806 Y106.399 E11.25344 ; skirt
G1 X119.176 Y107.227 E11.29170 ; skirt
G1 X119.510 Y108.071 E11.32997 ; skirt
G1 X119.807 Y108.929 E11.36826 ; skirt
G1 X120.066 Y109.799 E11.40652 ; skirt
G1 X120.287 Y110.680 E11.44480 ; skirt
G1 X120.469 Y111.569 E11.48307 ; skirt
G1 X120.612 Y112.465 E11.52135 ; skirt
G1 X120.716 Y113.367 E11.55962 ; skirt
G1 X120.781 Y114.272 E11.59790 ; skirt
G1 X120.806 Y115.180 E11.63617 ; skirt
G1 X120.791 Y116.088 E11.67445 ; skirt
G1 X120.737 Y116.994 E11.71272 ; skirt
G1 X120.643 Y117.897 E11.75103 ; skirt
G1 X120.511 Y118.795 E11.78927 ; skirt
G1 X120.339 Y119.686 E11.82755 ; skirt
G1 X120.128 Y120.569 E11.86582 ; skirt
G1 X119.879 Y121.442 E11.90410 ; skirt
G1 X119.592 Y122.303 E11.94237 ; skirt
G1 X119.268 Y123.151 E11.98065 ; skirt
G1 X118.907 Y123.984 E12.01892 ; skirt
G1 X118.510 Y124.800 E12.05720 ; skirt
G1 X118.078 Y125.599 E12.09547 ; skirt
G1 X117.612 Y126.378 E12.13375 ; skirt
G1 X117.112 Y127.135 E12.17203 ; skirt
G1 X116.579 Y127.870 E12.21030 ; skirt
G1 X116.015 Y128.582 E12.24859 ; skirt
G1 X115.421 Y129.268 E12.28685 ; skirt
G1 X114.797 Y129.927 E12.32512 ; skirt
G1 X114.145 Y130.558 E12.36340 ; skirt
G1 X113.466 Y131.161 E12.40168 ; skirt
G1 X112.761 Y131.733 E12.43995 ; skirt
G1 X112.032 Y132.274 E12.47823 ; skirt
G1 X111.280 Y132.783 E12.51650 ; skirt
G1 X110.507 Y133.258 E12.55479 ; skirt
G1 X109.713 Y133.700 E12.59305 ; skirt
G1 X108.901 Y134.106 E12.63135 ; skirt
G1 X108.073 Y134.476 E12.66960 ; skirt
G1 X107.229 Y134.810 E12.70787 ; skirt
G1 X106.371 Y135.107 E12.74616 ; skirt
G1 X105.501 Y135.366 E12.78442 ; skirt
G1 X104.620 Y135.587 E12.82271 ; skirt
G1 X103.731 Y135.769 E12.86097 ; skirt
G1 X102.835 Y135.912 E12.89924 ; skirt
G1 X101.933 Y136.016 E12.93752 ; skirt
G1 X101.027 Y136.081 E12.97581 ; skirt
G1 X100.120 Y136.106 E13.01408 ; skirt
G1 X99.212 Y136.091 E13.05234 ; skirt
G1 X98.306 Y136.037 E13.09062 ; skirt
G1 X97.403 Y135.943 E13.12889 ; skirt
G1 X96.505 Y135.811 E13.16717 ; skirt
G1 X95.614 Y135.639 E13.20544 ; skirt
G1 X94.731 Y135.428 E13.24372 ; skirt
G1 X93.858 Y135.179 E13.28200 ; skirt
G1 X92.997 Y134.892 E13.32027 ; skirt
G1 X92.149 Y134.568 E13.35854 ; skirt
G1 X91.316 Y134.207 E13.39682 ; skirt
G1 X90.500 Y133.810 E13.43509 ; skirt
G1 X89.701 Y133.378 E13.47337 ; skirt
G1 X88.922 Y132.912 E13.51165 ; skirt
G1 X88.165 Y132.412 E13.54992 ; skirt
G1 X87.430 Y131.879 E13.58819 ; skirt
G1 X86.718 Y131.315 E13.62649 ; skirt
G1 X86.032 Y130.721 E13.66474 ; skirt
G1 X85.373 Y130.097 E13.70303 ; skirt
G1 X84.741 Y129.445 E13.74131 ; skirt
G1 X84.139 Y128.766 E13.77958 ; skirt
G1 X83.567 Y128.061 E13.81784 ; skirt
G1 X83.026 Y127.332 E13.85613 ; skirt
G1 X82.517 Y126.580 E13.89441 ; skirt
G1 X82.042 Y125.807 E13.93268 ; skirt
G1 X81.600 Y125.013 E13.97096 ; skirt
G1 X81.194 Y124.202 E14.00923 ; skirt
G1 X80.824 Y123.373 E14.04751 ; skirt
G1 X80.490 Y122.529 E14.08577 ; skirt
G1 X80.193 Y121.671 E14.12405 ; skirt
G1 X79.934 Y120.801 E14.16233 ; skirt
G1 X79.713 Y119.920 E14.20059 ; skirt
G1 X79.531 Y119.031 E14.23887 ; skirt
G1 X79.388 Y118.134 E14.27716 ; skirt
G1 X79.284 Y117.233 E14.31543 ; skirt
G1 X79.219 Y116.327 E14.35370 ; skirt
G1 X79.194 Y115.419 E14.39200 ; skirt
G1 X79.209 Y114.512 E14.43025 ; skirt
G1 X79.263 Y113.606 E14.46852 ; skirt
G1 X79.357 Y112.703 E14.50679 ; skirt
G1 X79.489 Y111.805 E14.54507 ; skirt
G1 X79.661 Y110.914 E14.58334 ; skirt
G1 X79.872 Y110.031 E14.62162 ; skirt
G1 X80.121 Y109.158 E14.65989 ; skirt
G1 X80.408 Y108.297 E14.69817 ; skirt
G1 X80.732 Y107.449 E14.73644 ; skirt
G1 X81.093 Y106.616 E14.77472 ; skirt
G1 X81.490 Y105.799 E14.81300 ; skirt
G1 X81.922 Y105.001 E14.85127 ; skirt
G1 X82.388 Y104.222 E14.88954 ; skirt
G1 X82.888 Y103.465 E14.92781 ; skirt
G1 X83.421 Y102.730 E14.96609 ; skirt
G1 X83.985 Y102.018 E15.00436 ; skirt
G1 X84.579 Y101.332 E15.04264 ; skirt
G1 X85.203 Y100.673 E15.08093 ; skirt
G1 X85.855 Y100.042 E15.11919 ; skirt
G1 X86.422 Y99.538 E15.15115 ; skirt
G1 E11.15115 F2400.00000 ; retract
G92 E0 ; reset extrusion distance
G1 X87.880 Y101.200 F1800.000 ; move to first brim point
G1 E4.00000 F2400.00000 ; unretract
G1 X88.651 Y100.569 E4.04203 F1800.000 ; brim
G1 X89.304 Y100.088 E4.07623 ; brim
G1 X89.978 Y99.636 E4.11045 ; brim
G1 X90.671 Y99.213 E4.14466 ; brim
G1 X91.381 Y98.822 E4.17887 ; brim
G1 X92.108 Y98.461 E4.21307 ; brim
G1 X92.851 Y98.133 E4.24729 ; brim
G1 X93.606 Y97.838 E4.28149 ; brim
G1 X94.374 Y97.575 E4.31570 ; brim
G1 X95.152 Y97.347 E4.34991 ; brim
G1 X95.940 Y97.153 E4.38412 ; brim
G1 X96.736 Y96.993 E4.41834 ; brim
G1 X97.537 Y96.868 E4.45255 ; brim
G1 X98.344 Y96.778 E4.48676 ; brim
G1 X99.153 Y96.723 E4.52096 ; brim
G1 X100.036 Y96.704 E4.55820 ; brim
G1 X100.847 Y96.723 E4.59241 F1800.000 ; brim
G1 X101.657 Y96.778 E4.62662 ; brim
G1 X102.463 Y96.868 E4.66083 ; brim
G1 X103.265 Y96.993 E4.69503 ; brim
G1 X104.060 Y97.153 E4.72924 ; brim
G1 X104.848 Y97.347 E4.76346 ; brim
G1 X105.626 Y97.575 E4.79766 ; brim
G1 X106.394 Y97.838 E4.83187 ; brim
G1 X107.150 Y98.133 E4.86608 ; brim
G1 X107.892 Y98.461 E4.90029 ; brim
G1 X108.619 Y98.822 E4.93450 ; brim
G1 X109.267 Y99.177 E4.96568 ; brim
G1 X109.961 Y99.597 E4.99988 ; brim
G1 X110.637 Y100.046 E5.03409 ; brim
G1 X111.292 Y100.525 E5.06830 ; brim
G1 X111.926 Y101.032 E5.10252 ; brim
G1 X112.537 Y101.565 E5.13672 ; brim
G1 X113.124 Y102.125 E5.17093 ; brim
G1 X113.686 Y102.710 E5.20514 ; brim
G1 X114.222 Y103.319 E5.23936 ; brim
G1 X114.731 Y103.951 E5.27356 ; brim
G1 X115.212 Y104.604 E5.30777 ; brim
G1 X115.664 Y105.278 E5.34198 ; brim
G1 X116.087 Y105.971 E5.37619 ; brim
G1 X116.478 Y106.681 E5.41040 ; brim
G1 X116.839 Y107.409 E5.44462 ; brim
G1 X117.167 Y108.150 E5.47882 ; brim
G1 X117.462 Y108.906 E5.51302 ; brim
G1 X117.725 Y109.674 E5.54724 ; brim
G1 X117.953 Y110.452 E5.58144 ; brim
G1 X118.147 Y111.240 E5.61566 ; brim
G1 X118.307 Y112.035 E5.64986 ; brim
G1 X118.432 Y112.837 E5.68407 ; brim
G1 X118.522 Y113.643 E5.71828 ; brim
G1 X118.577 Y114.453 E5.75249 ; brim
G1 X118.596 Y115.264 E5.78670 ; brim
G1 X118.580 Y116.075 E5.82090 ; brim
G1 X118.528 Y116.885 E5.85511 ; brim
G1 X118.442 Y117.692 E5.88934 ; brim
G1 X118.320 Y118.494 E5.92354 ; brim
G1 X118.163 Y119.290 E5.95774 ; brim
G1 X117.972 Y120.078 E5.99195 ; brim
G1 X117.746 Y120.858 E6.02617 ; brim
G1 X117.487 Y121.626 E6.06037 ; brim
G1 X117.194 Y122.383 E6.09458 ; brim
G1 X116.869 Y123.126 E6.12879 ; brim
G1 X116.512 Y123.855 E6.16299 ; brim
G1 X116.123 Y124.567 E6.19721 ; brim
G1 X115.703 Y125.261 E6.23141 ; brim
G1 X115.254 Y125.937 E6.26564 ; brim
G1 X114.775 Y126.592 E6.29983 ; brim
G1 X114.268 Y127.226 E6.33406 ; brim
G1 X113.735 Y127.837 E6.36825 ; brim
G1 X113.175 Y128.424 E6.40247 ; brim
G1 X112.590 Y128.986 E6.43668 ; brim
G1 X111.981 Y129.522 E6.47089 ; brim
G1 X111.349 Y130.031 E6.50509 ; brim
G1 X110.696 Y130.512 E6.53931 ; brim
G1 X110.022 Y130.964 E6.57351 ; brim
G1 X109.329 Y131.387 E6.60773 ; brim
G1 X108.619 Y131.778 E6.64194 ; brim
G1 X107.891 Y132.139 E6.67616 ; brim
G1 X107.150 Y132.467 E6.71035 ; brim
G1 X106.394 Y132.762 E6.74456 ; brim
G1 X105.626 Y133.025 E6.77878 ; brim
G1 X104.848 Y133.253 E6.81298 ; brim
G1 X104.060 Y133.447 E6.84720 ; brim
G1 X103.265 Y133.607 E6.88140 ; brim
G1 X102.463 Y133.732 E6.91561 ; brim
