; generated by Slic3r 1.3.1-dev (Build d17659b67c65bb5003ec92bf0d56ed7f8810e970) on 2018-09-11 at 14:58:45

; external perimeters extrusion width = 0.55mm (3.04mm^3/s)
; perimeters extrusion width = 0.55mm (3.04mm^3/s)
; infill extrusion width = 0.55mm (3.04mm^3/s)
; solid infill extrusion width = 0.55mm (3.04mm^3/s)
; top infill extrusion width = 0.55mm (3.04mm^3/s)

; external perimeters extrusion width = 0.02mm (-0.14mm^3/s)
; perimeters extrusion width = 0.55mm (3.04mm^3/s)
; infill extrusion width = 0.55mm (3.04mm^3/s)
; solid infill extrusion width = 0.55mm (3.04mm^3/s)
; top infill extrusion width = 0.55mm (3.04mm^3/s)

M107 ; disable fan
M190 S95 ; set bed temperature and wait for it to be reached
M104 T10  S230
G21     ; use millimeters
G90     ; absolute coordinates
G0 Z5 ; lift head to avoid collisions
G28 X0 Y0 ; home X and Y
G92 X0 Y0 ; reset origin: X and Y
G0 X220 Y90
G92 X0 Y0
M83          ; relative extruder coordinates
M109 S230  ;wait for temperture to come up.
M756 S0.2  ;set flowfor the first layer please


; Filament gcode

; Filament gcode

G21 ; set units to millimeters
G90 ; use absolute coordinates
M82 ; use absolute distances for extrusion
G92 E0 ; reset extrusion distance
G92 E0 ; reset extrusion distance
T0 ; change extruder
;announce new layer <0>
;---
M756 S0.2
M790 ;execute any new layer actions
;---
G1 Z0.200 F1800.000 ; move to next layer (0)
G1 E-4.00000 F2400.00000 ; retract extruder 0
G92 E0 ; reset extrusion distance
G1 X125.532 Y119.622 F1800.000 ; move to first skirt point
G1 E4.00000 F2400.00000 ; unretract extruder 0
G1 F1800
G1 X126.179 Y118.954 E4.03921 ; skirt
G1 X126.661 Y118.493 E4.06735 ; skirt
G1 X127.347 Y117.884 E4.10601 ; skirt
G1 X128.079 Y117.289 E4.14577 ; skirt
G1 X128.825 Y116.734 E4.18499 ; skirt
G1 X129.595 Y116.213 E4.22419 ; skirt
G1 X130.387 Y115.726 E4.26340 ; skirt
G1 X131.200 Y115.273 E4.30262 ; skirt
G1 X132.269 Y114.746 E4.35287 ; skirt
G1 X133.122 Y114.377 E4.39207 ; skirt
G1 X133.744 Y114.135 E4.42022 ; skirt
G1 X134.611 Y113.835 E4.45888 ; skirt
G1 X135.514 Y113.565 E4.49866 ; skirt
G1 X136.416 Y113.338 E4.53786 ; skirt
G1 X137.327 Y113.151 E4.57706 ; skirt
G1 X138.245 Y113.004 E4.61627 ; skirt
G1 X139.169 Y112.897 E4.65549 ; skirt
G1 X140.358 Y112.819 E4.70573 ; skirt
G1 X141.288 Y112.805 E4.74494 ; skirt
G1 X142.218 Y112.831 E4.78415 ; skirt
G1 X142.884 Y112.874 E4.81230 ; skirt
G1 X143.809 Y112.970 E4.85150 ; skirt
G1 X144.729 Y113.106 E4.89071 ; skirt
G1 X145.642 Y113.282 E4.92992 ; skirt
G1 X146.546 Y113.497 E4.96912 ; skirt
G1 X147.441 Y113.752 E5.00834 ; skirt
G1 X148.570 Y114.135 E5.05860 ; skirt
G1 X149.434 Y114.477 E5.09781 ; skirt
G1 X150.283 Y114.857 E5.13702 ; skirt
G1 X150.882 Y115.152 E5.16516 ; skirt
G1 X151.688 Y115.588 E5.20382 ; skirt
G1 X152.498 Y116.072 E5.24358 ; skirt
G1 X153.274 Y116.584 E5.28278 ; skirt
G1 X154.027 Y117.129 E5.32199 ; skirt
G1 X154.756 Y117.707 E5.36120 ; skirt
G1 X155.652 Y118.493 E5.41147 ; skirt
G1 X156.320 Y119.140 E5.45067 ; skirt
G1 X156.959 Y119.816 E5.48988 ; skirt
G1 X157.568 Y120.519 E5.52909 ; skirt
G1 X157.986 Y121.039 E5.55724 ; skirt
G1 X158.540 Y121.786 E5.59644 ; skirt
G1 X159.061 Y122.556 E5.63565 ; skirt
G1 X159.680 Y123.575 E5.68592 ; skirt
G1 X160.122 Y124.393 E5.72513 ; skirt
G1 X160.528 Y125.229 E5.76433 ; skirt
G1 X160.897 Y126.083 E5.80354 ; skirt
G1 X161.229 Y126.951 E5.84275 ; skirt
G1 X161.444 Y127.584 E5.87090 ; skirt
G1 X161.709 Y128.475 E5.91010 ; skirt
G1 X161.936 Y129.377 E5.94931 ; skirt
G1 X162.123 Y130.288 E5.98853 ; skirt
G1 X162.304 Y131.466 E6.03879 ; skirt
G1 X162.400 Y132.391 E6.07799 ; skirt
G1 X162.455 Y133.319 E6.11720 ; skirt
G1 X162.470 Y134.249 E6.15641 ; skirt
G1 X162.444 Y135.178 E6.19562 ; skirt
G1 X162.400 Y135.844 E6.22376 ; skirt
G1 X162.304 Y136.769 E6.26297 ; skirt
G1 X162.169 Y137.689 E6.30218 ; skirt
G1 X161.993 Y138.602 E6.34138 ; skirt
G1 X161.777 Y139.507 E6.38059 ; skirt
G1 X161.444 Y140.652 E6.43086 ; skirt
G1 X161.139 Y141.530 E6.47007 ; skirt
G1 X160.797 Y142.395 E6.50927 ; skirt
G1 X160.417 Y143.244 E6.54848 ; skirt
G1 X160.122 Y143.842 E6.57663 ; skirt
G1 X159.680 Y144.660 E6.61584 ; skirt
G1 X159.202 Y145.458 E6.65505 ; skirt
G1 X158.691 Y146.235 E6.69425 ; skirt
G1 X157.986 Y147.196 E6.74452 ; skirt
G1 X157.399 Y147.918 E6.78373 ; skirt
G1 X156.782 Y148.613 E6.82294 ; skirt
G1 X156.320 Y149.095 E6.85108 ; skirt
G1 X155.652 Y149.742 E6.89029 ; skirt
G1 X154.957 Y150.360 E6.92950 ; skirt
G1 X154.235 Y150.946 E6.96870 ; skirt
G1 X153.489 Y151.501 E7.00791 ; skirt
G1 X152.719 Y152.022 E7.04712 ; skirt
G1 X151.927 Y152.509 E7.08633 ; skirt
G1 X151.114 Y152.962 E7.12553 ; skirt
G1 X150.045 Y153.489 E7.17580 ; skirt
G1 X149.192 Y153.858 E7.21501 ; skirt
G1 X148.323 Y154.190 E7.25422 ; skirt
G1 X147.691 Y154.404 E7.28236 ; skirt
G1 X146.800 Y154.670 E7.32157 ; skirt
G1 X145.898 Y154.897 E7.36078 ; skirt
G1 X144.987 Y155.084 E7.39999 ; skirt
G1 X144.069 Y155.231 E7.43919 ; skirt
G1 X143.145 Y155.338 E7.47840 ; skirt
G1 X141.955 Y155.416 E7.52867 ; skirt
G1 X141.026 Y155.430 E7.56788 ; skirt
G1 X140.096 Y155.404 E7.60708 ; skirt
G1 X139.430 Y155.361 E7.63523 ; skirt
G1 X138.505 Y155.265 E7.67444 ; skirt
G1 X137.585 Y155.129 E7.71365 ; skirt
G1 X136.672 Y154.953 E7.75285 ; skirt
G1 X135.767 Y154.738 E7.79206 ; skirt
G1 X134.623 Y154.404 E7.84233 ; skirt
G1 X133.744 Y154.100 E7.88154 ; skirt
G1 X132.880 Y153.758 E7.92074 ; skirt
G1 X132.031 Y153.378 E7.95995 ; skirt
G1 X131.432 Y153.083 E7.98810 ; skirt
G1 X130.614 Y152.641 E8.02730 ; skirt
G1 X129.816 Y152.163 E8.06651 ; skirt
G1 X129.040 Y151.651 E8.10572 ; skirt
G1 X128.287 Y151.106 E8.14493 ; skirt
G1 X127.558 Y150.528 E8.18414 ; skirt
G1 X126.661 Y149.742 E8.23440 ; skirt
G1 X125.994 Y149.095 E8.27361 ; skirt
G1 X125.532 Y148.613 E8.30176 ; skirt
G1 X124.923 Y147.927 E8.34042 ; skirt
G1 X124.328 Y147.196 E8.38017 ; skirt
G1 X123.774 Y146.449 E8.41938 ; skirt
G1 X123.252 Y145.680 E8.45859 ; skirt
G1 X122.765 Y144.887 E8.49781 ; skirt
G1 X122.313 Y144.075 E8.53702 ; skirt
G1 X121.786 Y143.006 E8.58727 ; skirt
G1 X121.416 Y142.152 E8.62648 ; skirt
G1 X121.085 Y141.284 E8.66569 ; skirt
G1 X120.870 Y140.651 E8.69384 ; skirt
G1 X120.608 Y139.773 E8.73249 ; skirt
G1 X120.378 Y138.859 E8.77225 ; skirt
G1 X120.191 Y137.948 E8.81145 ; skirt
G1 X120.009 Y136.769 E8.86172 ; skirt
G1 X119.914 Y135.844 E8.90093 ; skirt
G1 X119.859 Y134.916 E8.94014 ; skirt
G1 X119.844 Y133.986 E8.97934 ; skirt
G1 X119.870 Y133.057 E9.01855 ; skirt
G1 X119.914 Y132.391 E9.04670 ; skirt
G1 X120.009 Y131.466 E9.08591 ; skirt
G1 X120.145 Y130.546 E9.12511 ; skirt
G1 X120.321 Y129.633 E9.16432 ; skirt
G1 X120.536 Y128.728 E9.20353 ; skirt
G1 X120.791 Y127.834 E9.24274 ; skirt
G1 X121.174 Y126.705 E9.29300 ; skirt
G1 X121.517 Y125.840 E9.33221 ; skirt
G1 X121.786 Y125.229 E9.36036 ; skirt
G1 X122.186 Y124.404 E9.39902 ; skirt
G1 X122.634 Y123.575 E9.43877 ; skirt
G1 X123.111 Y122.777 E9.47798 ; skirt
G1 X123.623 Y122.001 E9.51719 ; skirt
G1 X124.168 Y121.247 E9.55639 ; skirt
G1 X124.746 Y120.518 E9.59561 ; skirt
G1 X125.481 Y119.677 E9.64271 ; skirt
G1 X125.898 Y119.973 F1800.000 ; move to first skirt point
G1 F1800
G1 X126.530 Y119.321 E9.68098 ; skirt
G1 X127.012 Y118.859 E9.70913 ; skirt
G1 X127.681 Y118.265 E9.74686 ; skirt
G1 X128.396 Y117.684 E9.78568 ; skirt
G1 X129.125 Y117.143 E9.82396 ; skirt
G1 X129.877 Y116.635 E9.86224 ; skirt
G1 X130.650 Y116.159 E9.90051 ; skirt
G1 X131.444 Y115.718 E9.93879 ; skirt
G1 X132.473 Y115.210 E9.98718 ; skirt
G1 X133.306 Y114.850 E10.02546 ; skirt
G1 X133.928 Y114.608 E10.05360 ; skirt
G1 X134.774 Y114.315 E10.09133 ; skirt
G1 X135.656 Y114.052 E10.13017 ; skirt
G1 X136.537 Y113.831 E10.16844 ; skirt
G1 X137.426 Y113.649 E10.20671 ; skirt
G1 X138.322 Y113.505 E10.24499 ; skirt
G1 X139.224 Y113.401 E10.28327 ; skirt
G1 X140.369 Y113.326 E10.33165 ; skirt
G1 X141.277 Y113.312 E10.36993 ; skirt
G1 X141.945 Y113.326 E10.39810 ; skirt
G1 X142.838 Y113.380 E10.43580 ; skirt
G1 X143.753 Y113.474 E10.47462 ; skirt
G1 X144.651 Y113.607 E10.51290 ; skirt
G1 X145.543 Y113.779 E10.55117 ; skirt
G1 X146.426 Y113.990 E10.58945 ; skirt
G1 X147.299 Y114.239 E10.62773 ; skirt
G1 X148.386 Y114.608 E10.67613 ; skirt
G1 X149.230 Y114.941 E10.71440 ; skirt
G1 X150.059 Y115.312 E10.75268 ; skirt
G1 X150.657 Y115.607 E10.78082 ; skirt
G1 X151.444 Y116.033 E10.81855 ; skirt
G1 X152.235 Y116.506 E10.85737 ; skirt
G1 X152.992 Y117.006 E10.89565 ; skirt
G1 X153.918 Y117.684 E10.94405 ; skirt
G1 X154.623 Y118.257 E10.98232 ; skirt
G1 X155.302 Y118.859 E11.02060 ; skirt
G1 X155.954 Y119.491 E11.05887 ; skirt
G1 X156.578 Y120.150 E11.09715 ; skirt
G1 X157.172 Y120.836 E11.13542 ; skirt
G1 X157.590 Y121.357 E11.16357 ; skirt
G1 X158.131 Y122.085 E11.20184 ; skirt
G1 X158.640 Y122.837 E11.24012 ; skirt
G1 X159.235 Y123.819 E11.28852 ; skirt
G1 X159.667 Y124.617 E11.32680 ; skirt
G1 X160.064 Y125.434 E11.36507 ; skirt
G1 X160.425 Y126.267 E11.40335 ; skirt
G1 X160.749 Y127.114 E11.44162 ; skirt
G1 X160.964 Y127.747 E11.46977 ; skirt
G1 X161.223 Y128.617 E11.50804 ; skirt
G1 X161.443 Y129.497 E11.54632 ; skirt
G1 X161.626 Y130.387 E11.58460 ; skirt
G1 X161.769 Y131.283 E11.62287 ; skirt
G1 X161.894 Y132.424 E11.67127 ; skirt
G1 X161.948 Y133.330 E11.70954 ; skirt
G1 X161.963 Y134.238 E11.74782 ; skirt
G1 X161.938 Y135.145 E11.78610 ; skirt
G1 X161.894 Y135.811 E11.81424 ; skirt
G1 X161.800 Y136.714 E11.85251 ; skirt
G1 X161.667 Y137.612 E11.89079 ; skirt
G1 X161.495 Y138.503 E11.92906 ; skirt
G1 X161.285 Y139.386 E11.96734 ; skirt
G1 X161.036 Y140.259 E12.00562 ; skirt
G1 X160.667 Y141.346 E12.05402 ; skirt
G1 X160.333 Y142.191 E12.09229 ; skirt
G1 X159.963 Y143.019 E12.13057 ; skirt
G1 X159.667 Y143.618 E12.15871 ; skirt
G1 X159.235 Y144.416 E12.19699 ; skirt
G1 X158.769 Y145.195 E12.23526 ; skirt
G1 X158.269 Y145.953 E12.27354 ; skirt
G1 X157.736 Y146.688 E12.31181 ; skirt
G1 X157.172 Y147.399 E12.35009 ; skirt
G1 X156.415 Y148.262 E12.39849 ; skirt
G1 X155.954 Y148.745 E12.42664 ; skirt
G1 X155.302 Y149.376 E12.46491 ; skirt
G1 X154.623 Y149.978 E12.50319 ; skirt
G1 X153.918 Y150.551 E12.54146 ; skirt
G1 X153.189 Y151.092 E12.57974 ; skirt
G1 X152.437 Y151.600 E12.61801 ; skirt
G1 X151.456 Y152.196 E12.66641 ; skirt
G1 X150.657 Y152.628 E12.70469 ; skirt
G1 X149.841 Y153.025 E12.74296 ; skirt
G1 X149.008 Y153.386 E12.78124 ; skirt
G1 X148.160 Y153.710 E12.81951 ; skirt
G1 X147.528 Y153.924 E12.84766 ; skirt
G1 X146.658 Y154.183 E12.88593 ; skirt
G1 X145.777 Y154.404 E12.92421 ; skirt
G1 X144.888 Y154.586 E12.96248 ; skirt
G1 X143.753 Y154.761 E13.01089 ; skirt
G1 X142.851 Y154.855 E13.04916 ; skirt
G1 X141.944 Y154.909 E13.08744 ; skirt
G1 X141.037 Y154.923 E13.12571 ; skirt
G1 X140.129 Y154.898 E13.16399 ; skirt
G1 X139.463 Y154.855 E13.19213 ; skirt
G1 X138.560 Y154.761 E13.23041 ; skirt
G1 X137.662 Y154.628 E13.26868 ; skirt
G1 X136.771 Y154.456 E13.30696 ; skirt
G1 X135.888 Y154.245 E13.34523 ; skirt
G1 X135.015 Y153.996 E13.38351 ; skirt
G1 X133.928 Y153.627 E13.43191 ; skirt
G1 X133.084 Y153.294 E13.47018 ; skirt
G1 X132.255 Y152.923 E13.50846 ; skirt
G1 X131.656 Y152.628 E13.53661 ; skirt
G1 X130.858 Y152.196 E13.57488 ; skirt
G1 X130.079 Y151.729 E13.61316 ; skirt
G1 X129.322 Y151.230 E13.65143 ; skirt
G1 X128.396 Y150.551 E13.69983 ; skirt
G1 X127.691 Y149.978 E13.73811 ; skirt
G1 X127.012 Y149.376 E13.77638 ; skirt
G1 X126.360 Y148.745 E13.81466 ; skirt
G1 X125.898 Y148.262 E13.84280 ; skirt
G1 X125.305 Y147.593 E13.88053 ; skirt
G1 X124.724 Y146.879 E13.91935 ; skirt
G1 X124.183 Y146.150 E13.95763 ; skirt
G1 X123.674 Y145.398 E13.99590 ; skirt
G1 X123.198 Y144.624 E14.03419 ; skirt
G1 X122.757 Y143.831 E14.07247 ; skirt
G1 X122.250 Y142.802 E14.12085 ; skirt
G1 X121.889 Y141.969 E14.15913 ; skirt
G1 X121.565 Y141.121 E14.19740 ; skirt
G1 X121.350 Y140.488 E14.22556 ; skirt
G1 X121.095 Y139.631 E14.26329 ; skirt
G1 X120.870 Y138.738 E14.30210 ; skirt
G1 X120.688 Y137.849 E14.34038 ; skirt
G1 X120.545 Y136.952 E14.37865 ; skirt
G1 X120.420 Y135.811 E14.42705 ; skirt
G1 X120.366 Y134.905 E14.46533 ; skirt
G1 X120.351 Y133.997 E14.50360 ; skirt
G1 X120.376 Y133.090 E14.54188 ; skirt
G1 X120.441 Y132.185 E14.58015 ; skirt
G1 X120.513 Y131.521 E14.60830 ; skirt
G1 X120.646 Y130.623 E14.64657 ; skirt
G1 X120.818 Y129.732 E14.68485 ; skirt
G1 X121.029 Y128.849 E14.72312 ; skirt
G1 X121.278 Y127.976 E14.76140 ; skirt
G1 X121.647 Y126.889 E14.80980 ; skirt
G1 X121.981 Y126.045 E14.84807 ; skirt
G1 X122.250 Y125.433 E14.87622 ; skirt
G1 X122.641 Y124.628 E14.91396 ; skirt
G1 X123.078 Y123.819 E14.95277 ; skirt
G1 X123.545 Y123.040 E14.99105 ; skirt
G1 X124.045 Y122.282 E15.02932 ; skirt
G1 X124.577 Y121.547 E15.06759 ; skirt
G1 X125.142 Y120.836 E15.10587 ; skirt
G1 X125.848 Y120.028 E15.15111 ; skirt
G1 X127.145 Y121.222 F1800.000 ; move to first brim point
G1 F1800
G1 X127.720 Y120.623 E15.19059 ; brim
G1 X128.262 Y120.105 E15.22618 ; brim
G1 X128.845 Y119.592 E15.26311 ; brim
G1 X129.532 Y119.035 E15.30514 ; brim
G1 X130.201 Y118.542 E15.34462 ; brim
G1 X130.891 Y118.079 E15.38409 ; brim
G1 X131.600 Y117.646 E15.42357 ; brim
G1 X132.328 Y117.245 E15.46305 ; brim
G1 X133.146 Y116.842 E15.50640 ; brim
G1 X133.907 Y116.509 E15.54588 ; brim
G1 X134.605 Y116.237 E15.58147 ; brim
G1 X135.341 Y115.986 E15.61839 ; brim
G1 X136.189 Y115.734 E15.66044 ; brim
G1 X136.996 Y115.535 E15.69991 ; brim
G1 X137.810 Y115.371 E15.73938 ; brim
G1 X138.631 Y115.243 E15.77886 ; brim
G1 X139.457 Y115.151 E15.81834 ; brim
G1 X140.367 Y115.091 E15.86169 ; brim
G1 X141.198 Y115.075 E15.90117 ; brim
G1 X142.028 Y115.095 E15.94065 ; brim
G1 X142.776 Y115.144 E15.97624 ; brim
G1 X143.602 Y115.232 E16.01571 ; brim
G1 X144.423 Y115.357 E16.05518 ; brim
G1 X145.239 Y115.517 E16.09467 ; brim
G1 X146.125 Y115.734 E16.13803 ; brim
G1 X146.922 Y115.968 E16.17751 ; brim
G1 X147.708 Y116.237 E16.21698 ; brim
G1 X148.482 Y116.540 E16.25646 ; brim
G1 X149.242 Y116.876 E16.29593 ; brim
G1 X149.986 Y117.245 E16.33541 ; brim
G1 X150.643 Y117.606 E16.37101 ; brim
G1 X151.354 Y118.035 E16.41048 ; brim
G1 X152.113 Y118.542 E16.45384 ; brim
G1 X152.782 Y119.035 E16.49332 ; brim
G1 X153.429 Y119.556 E16.53280 ; brim
G1 X154.052 Y120.105 E16.57227 ; brim
G1 X154.651 Y120.681 E16.61175 ; brim
G1 X155.224 Y121.282 E16.65123 ; brim
G1 X155.771 Y121.908 E16.69070 ; brim
G1 X156.289 Y122.557 E16.73018 ; brim
G1 X156.732 Y123.161 E16.76577 ; brim
G1 X157.196 Y123.851 E16.80525 ; brim
G1 X157.669 Y124.631 E16.84861 ; brim
G1 X158.067 Y125.361 E16.88809 ; brim
G1 X158.433 Y126.107 E16.92757 ; brim
G1 X158.766 Y126.868 E16.96704 ; brim
G1 X159.065 Y127.643 E17.00652 ; brim
G1 X159.306 Y128.352 E17.04212 ; brim
G1 X159.540 Y129.149 E17.08159 ; brim
G1 X159.740 Y129.956 E17.12107 ; brim
G1 X159.903 Y130.771 E17.16055 ; brim
G1 X160.032 Y131.591 E17.20002 ; brim
G1 X160.124 Y132.417 E17.23950 ; brim
G1 X160.183 Y133.328 E17.28286 ; brim
G1 X160.200 Y134.158 E17.32233 ; brim
G1 X160.180 Y134.989 E17.36181 ; brim
G1 X160.124 Y135.818 E17.40129 ; brim
G1 X160.032 Y136.644 E17.44076 ; brim
G1 X159.918 Y137.384 E17.47635 ; brim
G1 X159.740 Y138.279 E17.51972 ; brim
G1 X159.540 Y139.086 E17.55919 ; brim
G1 X159.306 Y139.883 E17.59867 ; brim
G1 X159.037 Y140.669 E17.63815 ; brim
G1 X158.735 Y141.443 E17.67763 ; brim
G1 X158.433 Y142.128 E17.71322 ; brim
G1 X158.067 Y142.874 E17.75268 ; brim
G1 X157.669 Y143.603 E17.79217 ; brim
G1 X157.240 Y144.315 E17.83165 ; brim
G1 X156.733 Y145.074 E17.87501 ; brim
G1 X156.240 Y145.742 E17.91449 ; brim
G1 X155.718 Y146.389 E17.95396 ; brim
G1 X155.169 Y147.013 E17.99344 ; brim
G1 X154.593 Y147.612 E18.03292 ; brim
