; generated by Slic3r 1.3.1-dev (Build d17659b67c65bb5003ec92bf0d56ed7f8810e970) on 2018-09-24 at 15:47:14

; external perimeters extrusion width = 0.55mm (3.04mm^3/s)
; perimeters extrusion width = 0.55mm (3.04mm^3/s)
; infill extrusion width = 0.55mm (3.04mm^3/s)
; solid infill extrusion width = 0.55mm (3.04mm^3/s)
; top infill extrusion width = 0.55mm (3.04mm^3/s)

; external perimeters extrusion width = 0.02mm (-0.14mm^3/s)
; perimeters extrusion width = 0.55mm (3.04mm^3/s)
; infill extrusion width = 0.55mm (3.04mm^3/s)
; solid infill extrusion width = 0.55mm (3.04mm^3/s)
; top infill extrusion width = 0.55mm (3.04mm^3/s)

; external perimeters extrusion width = 0.85mm (4.84mm^3/s)
; perimeters extrusion width = 0.85mm (4.84mm^3/s)
; infill extrusion width = 0.55mm (3.04mm^3/s)
; solid infill extrusion width = 0.55mm (3.04mm^3/s)
; top infill extrusion width = 0.55mm (3.04mm^3/s)

M107 ; disable fan
M190 S95 ; set bed temperature and wait for it to be reached
M104 T10  S230
G21     ; use millimeters
G90     ; absolute coordinates
G0 Z5 ; lift head to avoid collisions
G28 X0 Y0 ; home X and Y
G92 X0 Y0 ; reset origin: X and Y
G0 X220 Y90
G92 X0 Y0
G0 X0 Y100
M83          ; relative extruder coordinates
M109 S230  ;wait for temperture to come up.
M756 S0.2  ;set flowfor the first layer please



; Filament gcode

; Filament gcode


G21 ; set units to millimeters
G90 ; use absolute coordinates
M82 ; use absolute distances for extrusion
G92 E0 ; reset extrusion distance
G92 E0 ; reset extrusion distance
T0 ; change extruder
;announce new layer <0>
;---
M756 S0.2
M790 ;execute any new layer actions
;---
G1 Z0.200 F1800.000 ; move to next layer (0)
G1 E-4.00000 F2400.00000 ; retract extruder 0
G92 E0 ; reset extrusion distance
G1 X123.690 Y160.504 F1800.000 ; move to first skirt point
G1 E4.00000 F2400.00000 ; unretract extruder 0
G1 F1800
G1 X125.419 Y159.168 E4.09210 ; skirt
G1 X128.170 Y158.502 E4.21145 ; skirt
G1 X154.170 Y158.502 E5.30771 ; skirt
G1 X156.318 Y158.899 E5.39981 ; skirt
G1 X158.183 Y160.036 E5.49191 ; skirt
G1 X159.518 Y161.765 E5.58401 ; skirt
G1 X160.184 Y164.516 E5.70336 ; skirt
G1 X160.184 Y184.516 E6.54664 ; skirt
G1 X159.787 Y186.664 E6.63874 ; skirt
G1 X158.650 Y188.529 E6.73084 ; skirt
G1 X156.921 Y189.864 E6.82294 ; skirt
G1 X154.170 Y190.530 E6.94229 ; skirt
G1 X128.170 Y190.530 E8.03855 ; skirt
G1 X126.022 Y190.134 E8.13065 ; skirt
G1 X124.157 Y188.996 E8.22275 ; skirt
G1 X122.822 Y187.267 E8.31485 ; skirt
G1 X122.156 Y184.516 E8.43420 ; skirt
G1 X122.156 Y164.516 E9.27748 ; skirt
G1 X122.552 Y162.368 E9.36958 ; skirt
G1 X123.651 Y160.568 E9.45852 ; skirt
G1 X124.191 Y160.709 F1800.000 ; move to first skirt point
G1 F1800
G1 X125.896 Y159.501 E9.54661 ; skirt
G1 X128.170 Y159.009 E9.64470 ; skirt
G1 X154.170 Y159.009 E10.74096 ; skirt
G1 X156.221 Y159.406 E10.82906 ; skirt
G1 X157.978 Y160.538 E10.91716 ; skirt
G1 X159.186 Y162.242 E11.00526 ; skirt
G1 X159.677 Y164.516 E11.10334 ; skirt
G1 X159.677 Y184.516 E11.94662 ; skirt
G1 X159.281 Y186.568 E12.03472 ; skirt
G1 X158.149 Y188.324 E12.12282 ; skirt
G1 X156.444 Y189.532 E12.21092 ; skirt
G1 X154.170 Y190.023 E12.30900 ; skirt
G1 X128.170 Y190.023 E13.40526 ; skirt
G1 X126.118 Y189.627 E13.49336 ; skirt
G1 X124.362 Y188.495 E13.58146 ; skirt
G1 X123.154 Y186.790 E13.66956 ; skirt
G1 X122.663 Y184.516 E13.76765 ; skirt
G1 X122.663 Y164.516 E14.61092 ; skirt
G1 X123.059 Y162.465 E14.69902 ; skirt
G1 X124.151 Y160.772 E14.78396 ; skirt
G1 X125.386 Y162.007 F1800.000 ; move to first brim point
G1 F1800
G1 X126.620 Y160.773 E14.86685 ; brim
G1 X155.720 Y160.773 E16.24956 ; brim
G1 X157.913 Y162.966 E16.39689 ; brim
G1 X157.913 Y186.067 E17.49451 ; brim
G1 X155.720 Y188.259 E17.64184 ; brim
G1 X126.620 Y188.259 E19.02454 ; brim
G1 X124.427 Y186.067 E19.17187 ; brim
G1 X124.427 Y162.966 E20.26949 ; brim
G1 X125.333 Y162.060 E20.33036 ; brim
G1 X125.737 Y162.464 F1800.000 ; move to first brim point
G1 F1800
G1 X126.856 Y161.345 E20.40557 ; brim
G1 X155.484 Y161.345 E21.76579 ; brim
G1 X157.341 Y163.203 E21.89063 ; brim
G1 X157.341 Y185.830 E22.96575 ; brim
G1 X155.484 Y187.688 E23.09059 ; brim
G1 X126.856 Y187.688 E24.45080 ; brim
G1 X124.998 Y185.830 E24.57564 ; brim
G1 X124.998 Y163.203 E25.65077 ; brim
G1 X125.684 Y162.517 E25.69683 ; brim
G1 X126.088 Y162.921 F1800.000 ; move to first brim point
G1 F1800
G1 X127.093 Y161.916 E25.76436 ; brim
G1 X155.247 Y161.916 E27.10208 ; brim
G1 X156.770 Y163.439 E27.20442 ; brim
G1 X156.770 Y185.593 E28.25706 ; brim
G1 X155.247 Y187.116 E28.35940 ; brim
G1 X127.093 Y187.116 E29.69712 ; brim
G1 X125.570 Y185.593 E29.79947 ; brim
G1 X125.570 Y163.439 E30.85210 ; brim
G1 X126.035 Y162.974 E30.88335 ; brim
G1 X126.439 Y163.378 F1800.000 ; move to first brim point
G1 F1800
G1 X127.330 Y162.488 E30.94320 ; brim
G1 X155.010 Y162.488 E32.25843 ; brim
G1 X156.199 Y163.676 E32.33828 ; brim
G1 X156.199 Y185.357 E33.36842 ; brim
G1 X155.010 Y186.545 E33.44827 ; brim
G1 X127.330 Y186.545 E34.76350 ; brim
G1 X126.141 Y185.357 E34.84335 ; brim
G1 X126.141 Y163.676 E35.87349 ; brim
G1 X126.386 Y163.431 E35.88993 ; brim
G1 X126.790 Y163.835 F1800.000 ; move to first brim point
G1 F1800
G1 X127.566 Y163.059 E35.94210 ; brim
G1 X154.773 Y163.059 E37.23483 ; brim
G1 X155.627 Y163.913 E37.29219 ; brim
G1 X155.627 Y185.120 E38.29984 ; brim
G1 X154.773 Y185.973 E38.35720 ; brim
G1 X127.566 Y185.973 E39.64993 ; brim
G1 X126.713 Y185.120 E39.70729 ; brim
G1 X126.713 Y163.913 E40.71494 ; brim
G1 X126.737 Y163.888 E40.71657 ; brim
G1 X127.284 Y164.149 F1800.000 ; move to first brim point
G1 F1800
G1 X127.803 Y163.630 E40.75144 ; brim
G1 X154.537 Y163.630 E42.02168 ; brim
G1 X155.056 Y164.149 E42.05655 ; brim
G1 X155.056 Y184.883 E43.04170 ; brim
G1 X154.537 Y185.402 E43.07657 ; brim
G1 X127.803 Y185.402 E44.34681 ; brim
G1 X127.284 Y184.883 E44.38168 ; brim
G1 X127.284 Y164.224 E45.36327 ; brim
G1 X127.856 Y164.386 F1800.000 ; move to first brim point
G1 F1800
G1 X128.040 Y164.202 E45.37564 ; brim
G1 X154.300 Y164.202 E46.62339 ; brim
G1 X154.484 Y164.386 E46.63577 ; brim
G1 X154.484 Y184.646 E47.59843 ; brim
G1 X154.300 Y184.831 E47.61080 ; brim
G1 X128.040 Y184.831 E48.85855 ; brim
G1 X127.856 Y184.646 E48.87093 ; brim
G1 X127.856 Y164.461 E49.83003 ; brim
G1 X128.445 Y164.791 F1800.000 ; move to first external perimeter point
G1 F1800
G1 X153.895 Y164.791 E50.90310 ; external perimeter
G1 X153.895 Y184.241 E51.72318 ; external perimeter
G1 X128.445 Y184.241 E52.79625 ; external perimeter
G1 X128.445 Y164.866 E53.61318 ; external perimeter
G1 X128.445 Y164.791 F1800.000 ; move inwards before travel
G1 E49.61318 F2400.00000 ; retract extruder 0
G92 E0 ; reset extrusion distance
G1 X131.302 Y165.298 F1800.000 ; move to first perimeter point
G1 E4.00000 F2400.00000 ; unretract extruder 0
G1 F1800
G1 X153.388 Y165.298 E4.93121 ; perimeter
G1 X153.388 Y183.734 E5.70854 ; perimeter
G1 X128.952 Y183.734 E6.73884 ; perimeter
G1 X128.952 Y165.298 E7.51617 ; perimeter
G1 X131.227 Y165.298 E7.61211 ; perimeter
G1 X129.513 Y165.752 F1800.000 ; move to first infill point
G1 F1800
G1 X129.405 Y165.859 E7.61864 ; infill
G1 X129.405 Y166.589 E7.64992 ; infill
G1 X130.242 Y165.752 E7.70069 ; infill
G1 X130.972 Y165.752 E7.73196 ; infill
G1 X129.405 Y167.318 E7.82696 ; infill
G1 X129.405 Y168.047 E7.85824 ; infill
G1 X131.701 Y165.752 E7.99747 ; infill
G1 X132.430 Y165.752 E8.02874 ; infill
G1 X129.405 Y168.777 E8.21220 ; infill
G1 X129.405 Y169.506 E8.24348 ; infill
G1 X133.160 Y165.752 E8.47117 ; infill
G1 X133.889 Y165.752 E8.50244 ; infill
G1 X129.405 Y170.235 E8.77436 ; infill
G1 X129.405 Y170.965 E8.80564 ; infill
G1 X134.618 Y165.752 E9.12179 ; infill
G1 X135.348 Y165.752 E9.15307 ; infill
G1 X129.405 Y171.694 E9.51345 ; infill
G1 X129.405 Y172.423 E9.54473 ; infill
G1 X136.077 Y165.752 E9.94934 ; infill
G1 X136.806 Y165.752 E9.98062 ; infill
G1 X129.405 Y173.153 E10.42946 ; infill
G1 X129.405 Y173.882 E10.46074 ; infill
G1 X137.536 Y165.752 E10.95381 ; infill
G1 X138.265 Y165.752 E10.98509 ; infill
G1 X129.405 Y174.611 E11.52239 ; infill
G1 X129.405 Y175.341 E11.55367 ; infill
G1 X138.994 Y165.752 E12.13521 ; infill
G1 X139.724 Y165.752 E12.16648 ; infill
G1 X129.405 Y176.070 E12.79225 ; infill
G1 X129.405 Y176.799 E12.82353 ; infill
G1 X140.453 Y165.752 E13.49353 ; infill
G1 X141.182 Y165.752 E13.52480 ; infill
G1 X129.405 Y177.529 E14.23903 ; infill
G1 X129.405 Y178.258 E14.27031 ; infill
G1 X141.912 Y165.752 E15.02877 ; infill
G1 X142.641 Y165.752 E15.06004 ; infill
G1 X129.405 Y178.988 E15.86274 ; infill
G1 X129.405 Y179.717 E15.89401 ; infill
G1 X143.370 Y165.752 E16.74093 ; infill
G1 X144.100 Y165.752 E16.77221 ; infill
G1 X129.405 Y180.446 E17.66336 ; infill
G1 X129.405 Y181.176 E17.69464 ; infill
G1 X144.829 Y165.752 E18.63002 ; infill
G1 X145.559 Y165.752 E18.66130 ; infill
G1 X129.405 Y181.905 E19.64091 ; infill
G1 X129.405 Y182.634 E19.67219 ; infill
G1 X146.288 Y165.752 E20.69604 ; infill
G1 X147.017 Y165.752 E20.72731 ; infill
G1 X129.488 Y183.281 E21.79037 ; infill
G1 X130.217 Y183.281 E21.82165 ; infill
G1 X147.747 Y165.752 E22.88471 ; infill
G1 X148.476 Y165.752 E22.91599 ; infill
G1 X130.947 Y183.281 E23.97905 ; infill
G1 X131.676 Y183.281 E24.01033 ; infill
G1 X149.205 Y165.752 E25.07339 ; infill
G1 X149.935 Y165.752 E25.10467 ; infill
G1 X132.405 Y183.281 E26.16773 ; infill
G1 X133.135 Y183.281 E26.19901 ; infill
G1 X150.664 Y165.752 E27.26207 ; infill
G1 X151.393 Y165.752 E27.29335 ; infill
G1 X133.864 Y183.281 E28.35641 ; infill
G1 X134.593 Y183.281 E28.38769 ; infill
G1 X152.123 Y165.752 E29.45075 ; infill
G1 X152.852 Y165.752 E29.48202 ; infill
G1 X135.323 Y183.281 E30.54509 ; infill
G1 X136.052 Y183.281 E30.57636 ; infill
G1 X152.935 Y166.398 E31.60020 ; infill
G1 X152.935 Y167.128 E31.63148 ; infill
G1 X136.781 Y183.281 E32.61109 ; infill
G1 X137.511 Y183.281 E32.64237 ; infill
G1 X152.935 Y167.857 E33.57775 ; infill
G1 X152.935 Y168.586 E33.60902 ; infill
G1 X138.240 Y183.281 E34.50017 ; infill
G1 X138.969 Y183.281 E34.53145 ; infill
G1 X152.935 Y169.316 E35.37837 ; infill
G1 X152.935 Y170.045 E35.40964 ; infill
G1 X139.699 Y183.281 E36.21233 ; infill
G1 X140.428 Y183.281 E36.24361 ; infill
G1 X152.935 Y170.774 E37.00206 ; infill
G1 X152.935 Y171.504 E37.03334 ; infill
G1 X141.157 Y183.281 E37.74756 ; infill
G1 X141.887 Y183.281 E37.77884 ; infill
G1 X152.935 Y172.233 E38.44883 ; infill
G1 X152.935 Y172.962 E38.48011 ; infill
G1 X142.616 Y183.281 E39.10587 ; infill
G1 X143.345 Y183.281 E39.13715 ; infill
G1 X152.935 Y173.692 E39.71868 ; infill
G1 X152.935 Y174.421 E39.74996 ; infill
G1 X144.075 Y183.281 E40.28726 ; infill
G1 X144.804 Y183.281 E40.31854 ; infill
G1 X152.935 Y175.150 E40.81161 ; infill
G1 X152.935 Y175.880 E40.84288 ; infill
G1 X145.533 Y183.281 E41.29172 ; infill
G1 X146.263 Y183.281 E41.32300 ; infill
G1 X152.935 Y176.609 E41.72761 ; infill
G1 X152.935 Y177.338 E41.75889 ; infill
G1 X146.992 Y183.281 E42.11926 ; infill
G1 X147.721 Y183.281 E42.15054 ; infill
G1 X152.935 Y178.068 E42.46669 ; infill
G1 X152.935 Y178.797 E42.49796 ; infill
G1 X148.451 Y183.281 E42.76988 ; infill
G1 X149.180 Y183.281 E42.80116 ; infill
G1 X152.935 Y179.526 E43.02884 ; infill
G1 X152.935 Y180.256 E43.06012 ; infill
G1 X149.909 Y183.281 E43.24357 ; infill
G1 X150.639 Y183.281 E43.27485 ; infill
G1 X152.935 Y180.985 E43.41408 ; infill
G1 X152.935 Y181.714 E43.44535 ; infill
G1 X151.368 Y183.281 E43.54034 ; infill
G1 X152.097 Y183.281 E43.57162 ; infill
G1 X152.935 Y182.444 E43.62238 ; infill
G1 X152.935 Y183.173 E43.65366 ; infill
G1 X152.827 Y183.281 E43.66019 ; infill
;announce new layer <1>
;---
M756 S0.2
M790 ;execute any new layer actions
;---
G1 Z0.400 F1800.000 ; move to next layer (1)
G1 X135.799 Y165.298 F1800.000 ; move to first perimeter point
G1 F1800
G1 X153.388 Y165.298 E44.40178 ; perimeter
G1 X153.388 Y183.734 E45.17911 ; perimeter
G1 X128.952 Y183.734 E46.20942 ; perimeter
G1 X128.952 Y165.298 E46.98674 ; perimeter
G1 X135.724 Y165.298 E47.27230 ; perimeter
G1 X135.724 Y164.791 F1800.000 ; move to first external perimeter point
G1 F1800
G1 X153.895 Y164.791 E48.03843 ; external perimeter
G1 X153.895 Y184.241 E48.85852 ; external perimeter
G1 X128.445 Y184.241 E49.93159 ; external perimeter
G1 X128.445 Y164.791 E50.75168 ; external perimeter
G1 X135.649 Y164.791 E51.05545 ; external perimeter
G1 X136.125 Y165.091 F1800.000 ; move inwards before travel
G1 X152.935 Y165.859 F1800.000 ; move to first infill point
G1 F1800
G1 X152.827 Y165.752 E51.06198 ; infill
G1 X152.097 Y165.752 E51.09326 ; infill
G1 X152.935 Y166.589 E51.14402 ; infill
G1 X152.935 Y167.318 E51.17530 ; infill
G1 X151.368 Y165.752 E51.27029 ; infill
G1 X150.639 Y165.752 E51.30157 ; infill
G1 X152.935 Y168.047 E51.44079 ; infill
G1 X152.935 Y168.777 E51.47207 ; infill
G1 X149.909 Y165.752 E51.65552 ; infill
G1 X149.180 Y165.752 E51.68680 ; infill
G1 X152.935 Y169.506 E51.91448 ; infill
G1 X152.935 Y170.235 E51.94576 ; infill
G1 X148.451 Y165.752 E52.21768 ; infill
G1 X147.721 Y165.752 E52.24895 ; infill
G1 X152.935 Y170.965 E52.56510 ; infill
G1 X152.935 Y171.694 E52.59638 ; infill
G1 X146.992 Y165.752 E52.95676 ; infill
G1 X146.263 Y165.752 E52.98803 ; infill
G1 X152.935 Y172.423 E53.39264 ; infill
G1 X152.935 Y173.153 E53.42392 ; infill
G1 X145.533 Y165.752 E53.87276 ; infill
G1 X144.804 Y165.752 E53.90403 ; infill
G1 X152.935 Y173.882 E54.39711 ; infill
G1 X152.935 Y174.611 E54.42838 ; infill
G1 X144.075 Y165.752 E54.96568 ; infill
G1 X143.345 Y165.752 E54.99696 ; infill
G1 X152.935 Y175.341 E55.57849 ; infill
G1 X152.935 Y176.070 E55.60977 ; infill
G1 X142.616 Y165.752 E56.23553 ; infill
G1 X141.887 Y165.752 E56.26681 ; infill
G1 X152.935 Y176.799 E56.93680 ; infill
G1 X152.935 Y177.529 E56.96808 ; infill
G1 X141.157 Y165.752 E57.68230 ; infill
G1 X140.428 Y165.752 E57.71358 ; infill
G1 X152.935 Y178.258 E58.47204 ; infill
G1 X152.935 Y178.987 E58.50331 ; infill
G1 X139.699 Y165.752 E59.30600 ; infill
G1 X138.969 Y165.752 E59.33728 ; infill
G1 X152.935 Y179.717 E60.18419 ; infill
G1 X152.935 Y180.446 E60.21547 ; infill
G1 X138.240 Y165.752 E61.10662 ; infill
G1 X137.511 Y165.752 E61.13790 ; infill
G1 X152.935 Y181.175 E62.07328 ; infill
G1 X152.935 Y181.905 E62.10455 ; infill
G1 X136.781 Y165.752 E63.08416 ; infill
G1 X136.052 Y165.752 E63.11544 ; infill
G1 X152.935 Y182.634 E64.13928 ; infill
G1 X152.935 Y183.281 E64.16701 ; infill
G1 X152.852 Y183.281 E64.17056 ; infill
G1 X135.323 Y165.752 E65.23362 ; infill
G1 X134.593 Y165.752 E65.26489 ; infill
G1 X152.123 Y183.281 E66.32796 ; infill
G1 X151.393 Y183.281 E66.35923 ; infill
G1 X133.864 Y165.752 E67.42230 ; infill
G1 X133.135 Y165.752 E67.45357 ; infill
G1 X150.664 Y183.281 E68.51664 ; infill
G1 X149.935 Y183.281 E68.54791 ; infill
G1 X132.405 Y165.752 E69.61098 ; infill
G1 X131.676 Y165.752 E69.64225 ; infill
G1 X149.205 Y183.281 E70.70531 ; infill
G1 X148.476 Y183.281 E70.73659 ; infill
G1 X130.947 Y165.752 E71.79965 ; infill
G1 X130.217 Y165.752 E71.83093 ; infill
G1 X147.747 Y183.281 E72.89399 ; infill
G1 X147.017 Y183.281 E72.92527 ; infill
G1 X129.488 Y165.752 E73.98833 ; infill
G1 X129.405 Y165.752 E73.99188 ; infill
G1 X129.405 Y166.398 E74.01961 ; infill
G1 X146.288 Y183.281 E75.04345 ; infill
G1 X145.559 Y183.281 E75.07473 ; infill
G1 X129.405 Y167.128 E76.05434 ; infill
G1 X129.405 Y167.857 E76.08562 ; infill
G1 X144.829 Y183.281 E77.02100 ; infill
G1 X144.100 Y183.281 E77.05228 ; infill
G1 X129.405 Y168.586 E77.94343 ; infill
G1 X129.405 Y169.316 E77.97471 ; infill
G1 X143.370 Y183.281 E78.82163 ; infill
