; generated by Slic3r 1.3.1-dev (Build d17659b67c65bb5003ec92bf0d56ed7f8810e970) on 2018-09-19 at 15:15:35

; external perimeters extrusion width = 0.55mm (3.04mm^3/s)
; perimeters extrusion width = 0.55mm (3.04mm^3/s)
; infill extrusion width = 0.55mm (3.04mm^3/s)
; solid infill extrusion width = 0.55mm (3.04mm^3/s)
; top infill extrusion width = 0.55mm (3.04mm^3/s)

; external perimeters extrusion width = 0.02mm (-0.14mm^3/s)
; perimeters extrusion width = 0.55mm (3.04mm^3/s)
; infill extrusion width = 0.55mm (3.04mm^3/s)
; solid infill extrusion width = 0.55mm (3.04mm^3/s)
; top infill extrusion width = 0.55mm (3.04mm^3/s)

; external perimeters extrusion width = 1.10mm (6.34mm^3/s)
; perimeters extrusion width = 1.10mm (6.34mm^3/s)
; infill extrusion width = 1.10mm (6.34mm^3/s)
; solid infill extrusion width = 1.10mm (6.34mm^3/s)
; top infill extrusion width = 1.10mm (6.34mm^3/s)

M107 ; disable fan
M190 S95 ; set bed temperature and wait for it to be reached
M104 T10  S230
G21     ; use millimeters
G90     ; absolute coordinates
G0 Z5 ; lift head to avoid collisions
G28 X0 Y0 ; home X and Y
G92 X0 Y0 ; reset origin: X and Y
G0 X220 Y90
G92 X0 Y0
M83          ; relative extruder coordinates
M109 S230  ;wait for temperture to come up.
M756 S0.2  ;set flowfor the first layer please







G21 ; set units to millimeters
G90 ; use absolute coordinates
M82 ; use absolute distances for extrusion
G92 E0 ; reset extrusion distance
G92 E0 ; reset extrusion distance
T0 ; change extruder
;announce new layer <0>
;---
M756 S0.2
M790 ;execute any new layer actions
;---
G1 Z0.200 F1800.000 ; move to next layer (0)
G1 E-4.00000 F2400.00000 ; retract extruder 0
G92 E0 ; reset extrusion distance
G1 X131.503 Y114.906 F1800.000 ; move to first skirt point
G1 E4.00000 F2400.00000 ; unretract extruder 0
G1 F1800
G1 X133.231 Y113.571 E4.09210 ; skirt
G1 X135.982 Y112.905 E4.21145 ; skirt
G1 X175.982 Y112.905 E5.89800 ; skirt
G1 X178.130 Y113.301 E5.99010 ; skirt
G1 X179.995 Y114.439 E6.08220 ; skirt
G1 X181.330 Y116.168 E6.17430 ; skirt
G1 X181.997 Y118.919 E6.29366 ; skirt
G1 X181.997 Y158.919 E7.98021 ; skirt
G1 X181.600 Y161.067 E8.07231 ; skirt
G1 X180.462 Y162.931 E8.16441 ; skirt
G1 X178.734 Y164.267 E8.25651 ; skirt
G1 X175.982 Y164.933 E8.37586 ; skirt
G1 X135.982 Y164.933 E10.06241 ; skirt
G1 X133.834 Y164.536 E10.15451 ; skirt
G1 X131.970 Y163.398 E10.24661 ; skirt
G1 X130.634 Y161.670 E10.33871 ; skirt
G1 X129.968 Y158.919 E10.45807 ; skirt
G1 X129.968 Y118.919 E12.14462 ; skirt
G1 X130.365 Y116.771 E12.23672 ; skirt
G1 X131.464 Y114.970 E12.32566 ; skirt
G1 X132.004 Y115.111 F1800.000 ; move to first skirt point
G1 F1800
G1 X133.708 Y113.903 E12.41375 ; skirt
G1 X135.982 Y113.412 E12.51184 ; skirt
G1 X175.982 Y113.412 E14.19840 ; skirt
G1 X178.034 Y113.808 E14.28650 ; skirt
G1 X179.790 Y114.940 E14.37459 ; skirt
G1 X180.998 Y116.645 E14.46269 ; skirt
G1 X181.489 Y118.919 E14.56078 ; skirt
G1 X181.489 Y158.919 E16.24733 ; skirt
G1 X181.093 Y160.970 E16.33543 ; skirt
G1 X179.961 Y162.726 E16.42353 ; skirt
G1 X178.256 Y163.934 E16.51163 ; skirt
G1 X175.982 Y164.426 E16.60972 ; skirt
G1 X135.982 Y164.426 E18.29627 ; skirt
G1 X133.931 Y164.029 E18.38437 ; skirt
G1 X132.175 Y162.897 E18.47247 ; skirt
G1 X130.967 Y161.193 E18.56056 ; skirt
G1 X130.475 Y158.919 E18.65865 ; skirt
G1 X130.475 Y118.919 E20.34521 ; skirt
G1 X130.872 Y116.867 E20.43330 ; skirt
G1 X131.963 Y115.174 E20.51824 ; skirt
G1 X133.198 Y116.409 F1800.000 ; move to first brim point
G1 F1800
G1 X134.432 Y115.176 E20.60113 ; brim
G1 X177.533 Y115.176 E22.64904 ; brim
G1 X179.725 Y117.368 E22.79637 ; brim
G1 X179.725 Y160.469 E24.84428 ; brim
G1 X177.533 Y162.662 E24.99161 ; brim
G1 X134.432 Y162.662 E27.03952 ; brim
G1 X132.239 Y160.469 E27.18685 ; brim
G1 X132.239 Y117.368 E29.23476 ; brim
G1 X133.145 Y116.462 E29.29563 ; brim
G1 X133.549 Y116.866 F1800.000 ; move to first brim point
G1 F1800
G1 X134.669 Y115.747 E29.37084 ; brim
G1 X177.296 Y115.747 E31.39626 ; brim
G1 X179.154 Y117.605 E31.52110 ; brim
G1 X179.154 Y160.232 E33.54651 ; brim
G1 X177.296 Y162.090 E33.67135 ; brim
G1 X134.669 Y162.090 E35.69676 ; brim
G1 X132.811 Y160.232 E35.82160 ; brim
G1 X132.811 Y117.605 E37.84702 ; brim
G1 X133.496 Y116.920 E37.89308 ; brim
G1 X133.900 Y117.324 F1800.000 ; move to first brim point
G1 F1800
G1 X134.905 Y116.319 E37.96061 ; brim
G1 X177.059 Y116.319 E39.96353 ; brim
G1 X178.582 Y117.842 E40.06588 ; brim
G1 X178.582 Y159.996 E42.06880 ; brim
G1 X177.059 Y161.519 E42.17114 ; brim
G1 X134.905 Y161.519 E44.17407 ; brim
G1 X133.382 Y159.996 E44.27641 ; brim
G1 X133.382 Y117.842 E46.27934 ; brim
G1 X133.847 Y117.377 E46.31059 ; brim
G1 X134.251 Y117.781 F1800.000 ; move to first brim point
G1 F1800
G1 X135.142 Y116.890 E46.37043 ; brim
G1 X176.823 Y116.890 E48.35086 ; brim
G1 X178.011 Y118.078 E48.43072 ; brim
G1 X178.011 Y159.759 E50.41115 ; brim
G1 X176.823 Y160.947 E50.49100 ; brim
G1 X135.142 Y160.947 E52.47143 ; brim
G1 X133.954 Y159.759 E52.55128 ; brim
G1 X133.954 Y118.078 E54.53171 ; brim
G1 X134.198 Y117.834 E54.54815 ; brim
G1 X134.602 Y118.238 F1800.000 ; move to first brim point
G1 F1800
G1 X135.379 Y117.461 E54.60032 ; brim
G1 X176.586 Y117.461 E56.55826 ; brim
G1 X177.440 Y118.315 E56.61561 ; brim
G1 X177.440 Y159.522 E58.57355 ; brim
G1 X176.586 Y160.376 E58.63091 ; brim
G1 X135.379 Y160.376 E60.58885 ; brim
G1 X134.525 Y159.522 E60.64621 ; brim
G1 X134.525 Y118.315 E62.60415 ; brim
G1 X134.549 Y118.291 E62.60578 ; brim
G1 X135.097 Y118.552 F1800.000 ; move to first brim point
G1 F1800
G1 X135.615 Y118.033 E62.64064 ; brim
G1 X176.349 Y118.033 E64.57609 ; brim
G1 X176.868 Y118.552 E64.61096 ; brim
G1 X176.868 Y159.286 E66.54640 ; brim
G1 X176.349 Y159.804 E66.58127 ; brim
G1 X135.615 Y159.804 E68.51671 ; brim
G1 X135.097 Y159.286 E68.55158 ; brim
G1 X135.097 Y118.627 E70.48346 ; brim
G1 X135.668 Y118.788 F1800.000 ; move to first brim point
G1 F1800
G1 X135.852 Y118.604 E70.49583 ; brim
G1 X176.113 Y118.604 E72.40879 ; brim
G1 X176.297 Y118.788 E72.42116 ; brim
G1 X176.297 Y159.049 E74.33411 ; brim
G1 X176.113 Y159.233 E74.34649 ; brim
G1 X135.852 Y159.233 E76.25944 ; brim
G1 X135.668 Y159.049 E76.27181 ; brim
G1 X135.668 Y118.863 E78.18120 ; brim
G1 X136.257 Y119.194 F1800.000 ; move to first external perimeter point
G1 F1800
G1 X175.707 Y119.194 E79.84457 ; external perimeter
G1 X175.707 Y158.644 E81.50793 ; external perimeter
G1 X136.257 Y158.644 E83.17129 ; external perimeter
G1 X136.257 Y119.269 E84.83149 ; external perimeter
G1 X136.257 Y119.194 F1800.000 ; move inwards before travel
G1 E80.83149 F2400.00000 ; retract extruder 0
G92 E0 ; reset extrusion distance
G1 X136.764 Y127.586 F1800.000 ; move to first perimeter point
G1 E4.00000 F2400.00000 ; unretract extruder 0
G1 F1800
G1 X136.764 Y119.701 E4.33248 ; perimeter
G1 X175.200 Y119.701 E5.95308 ; perimeter
G1 X175.200 Y158.137 E7.57368 ; perimeter
G1 X136.764 Y158.137 E9.19429 ; perimeter
G1 X136.764 Y127.661 E10.47925 ; perimeter
G1 E6.47925 F2400.00000 ; retract extruder 0
G92 E0 ; reset extrusion distance
G1 X137.325 Y120.154 F1800.000 ; move to first infill point
G1 E4.00000 F2400.00000 ; unretract extruder 0
G1 F1800
G1 X137.218 Y120.262 E4.00645 ; infill
G1 X137.218 Y120.981 E4.03690 ; infill
G1 X138.045 Y120.154 E4.08641 ; infill
G1 X138.765 Y120.154 E4.11686 ; infill
G1 X137.218 Y121.701 E4.20944 ; infill
G1 X137.218 Y122.421 E4.23989 ; infill
G1 X139.484 Y120.154 E4.37552 ; infill
G1 X140.204 Y120.154 E4.40597 ; infill
G1 X137.218 Y123.140 E4.58467 ; infill
G1 X137.218 Y123.860 E4.61512 ; infill
G1 X140.924 Y120.154 E4.83688 ; infill
G1 X141.643 Y120.154 E4.86733 ; infill
G1 X137.218 Y124.580 E5.13216 ; infill
G1 X137.218 Y125.299 E5.16261 ; infill
G1 X142.363 Y120.154 E5.47050 ; infill
G1 X143.083 Y120.154 E5.50095 ; infill
G1 X137.218 Y126.019 E5.85190 ; infill
G1 X137.218 Y126.739 E5.88235 ; infill
G1 X143.802 Y120.154 E6.27636 ; infill
G1 X144.522 Y120.154 E6.30681 ; infill
G1 X137.218 Y127.458 E6.74389 ; infill
G1 X137.218 Y128.178 E6.77434 ; infill
G1 X145.242 Y120.154 E7.25447 ; infill
G1 X145.961 Y120.154 E7.28492 ; infill
G1 X137.218 Y128.898 E7.80813 ; infill
G1 X137.218 Y129.617 E7.83858 ; infill
G1 X146.681 Y120.154 E8.40484 ; infill
G1 X147.401 Y120.154 E8.43529 ; infill
G1 X137.218 Y130.337 E9.04462 ; infill
G1 X137.218 Y131.057 E9.07507 ; infill
G1 X148.120 Y120.154 E9.72745 ; infill
G1 X148.840 Y120.154 E9.75790 ; infill
G1 X137.218 Y131.776 E10.45336 ; infill
G1 X137.218 Y132.496 E10.48381 ; infill
G1 X149.559 Y120.154 E11.22232 ; infill
G1 X150.279 Y120.154 E11.25277 ; infill
G1 X137.218 Y133.215 E12.03435 ; infill
G1 X137.218 Y133.935 E12.06480 ; infill
G1 X150.999 Y120.154 E12.88944 ; infill
G1 X151.718 Y120.154 E12.91989 ; infill
G1 X137.218 Y134.655 E13.78759 ; infill
G1 X137.218 Y135.374 E13.81804 ; infill
G1 X152.438 Y120.154 E14.72880 ; infill
G1 X153.158 Y120.154 E14.75925 ; infill
G1 X137.218 Y136.094 E15.71308 ; infill
G1 X137.218 Y136.814 E15.74353 ; infill
G1 X153.877 Y120.154 E16.74042 ; infill
G1 X154.597 Y120.154 E16.77087 ; infill
G1 X137.218 Y137.533 E17.81082 ; infill
G1 X137.218 Y138.253 E17.84127 ; infill
G1 X155.317 Y120.154 E18.92429 ; infill
G1 X156.036 Y120.154 E18.95474 ; infill
G1 X137.218 Y138.973 E20.08082 ; infill
G1 X137.218 Y139.692 E20.11127 ; infill
G1 X156.756 Y120.154 E21.28041 ; infill
G1 X157.476 Y120.154 E21.31086 ; infill
G1 X137.218 Y140.412 E22.52306 ; infill
G1 X137.218 Y141.132 E22.55351 ; infill
G1 X158.195 Y120.154 E23.80878 ; infill
G1 X158.915 Y120.154 E23.83923 ; infill
G1 X137.218 Y141.851 E25.13756 ; infill
G1 X137.218 Y142.571 E25.16801 ; infill
G1 X159.634 Y120.154 E26.50940 ; infill
G1 X160.354 Y120.154 E26.53985 ; infill
G1 X137.218 Y143.290 E27.92430 ; infill
G1 X137.218 Y144.010 E27.95475 ; infill
G1 X161.074 Y120.154 E29.38227 ; infill
G1 X161.793 Y120.154 E29.41272 ; infill
G1 X137.218 Y144.730 E30.88330 ; infill
G1 X137.218 Y145.449 E30.91375 ; infill
G1 X162.513 Y120.154 E32.42739 ; infill
G1 X163.233 Y120.154 E32.45784 ; infill
G1 X137.218 Y146.169 E34.01455 ; infill
G1 X137.218 Y146.889 E34.04500 ; infill
G1 X163.952 Y120.154 E35.64476 ; infill
G1 X164.672 Y120.154 E35.67521 ; infill
G1 X137.218 Y147.608 E37.31805 ; infill
G1 X137.218 Y148.328 E37.34850 ; infill
G1 X165.392 Y120.154 E39.03439 ; infill
G1 X166.111 Y120.154 E39.06484 ; infill
G1 X137.218 Y149.048 E40.79379 ; infill
G1 X137.218 Y149.767 E40.82424 ; infill
G1 X166.831 Y120.154 E42.59626 ; infill
G1 X167.551 Y120.154 E42.62671 ; infill
G1 X137.218 Y150.487 E44.44179 ; infill
G1 X137.218 Y151.207 E44.47224 ; infill
G1 X168.270 Y120.154 E46.33039 ; infill
G1 X168.990 Y120.154 E46.36084 ; infill
G1 X137.218 Y151.926 E48.26204 ; infill
G1 X137.218 Y152.646 E48.29249 ; infill
G1 X169.710 Y120.154 E50.23676 ; infill
G1 X170.429 Y120.154 E50.26721 ; infill
G1 X137.218 Y153.366 E52.25454 ; infill
G1 X137.218 Y154.085 E52.28499 ; infill
G1 X171.149 Y120.154 E54.31539 ; infill
G1 X171.868 Y120.154 E54.34584 ; infill
G1 X137.218 Y154.805 E56.41929 ; infill
G1 X137.218 Y155.524 E56.44974 ; infill
G1 X172.588 Y120.154 E58.56626 ; infill
G1 X173.308 Y120.154 E58.59671 ; infill
G1 X137.218 Y156.244 E60.75630 ; infill
G1 X137.218 Y156.964 E60.78675 ; infill
G1 X174.027 Y120.154 E62.98939 ; infill
G1 X174.747 Y120.154 E63.01984 ; infill
G1 X137.218 Y157.683 E65.26554 ; infill
G1 X137.937 Y157.683 E65.29599 ; infill
G1 X174.747 Y120.874 E67.49863 ; infill
G1 X174.747 Y121.593 E67.52908 ; infill
G1 X138.657 Y157.683 E69.68866 ; infill
G1 X139.377 Y157.683 E69.71911 ; infill
G1 X174.747 Y122.313 E71.83563 ; infill
G1 X174.747 Y123.033 E71.86608 ; infill
G1 X140.096 Y157.683 E73.93953 ; infill
G1 X140.816 Y157.683 E73.96998 ; infill
G1 X174.747 Y123.752 E76.00037 ; infill
G1 X174.747 Y124.472 E76.03082 ; infill
G1 X141.536 Y157.683 E78.01815 ; infill
G1 X142.255 Y157.683 E78.04860 ; infill
G1 X174.747 Y125.192 E79.99286 ; infill
G1 X174.747 Y125.911 E80.02331 ; infill
G1 X142.975 Y157.683 E81.92451 ; infill
G1 X143.695 Y157.683 E81.95496 ; infill
G1 X174.747 Y126.631 E83.81310 ; infill
G1 X174.747 Y127.351 E83.84355 ; infill
G1 X144.414 Y157.683 E85.65863 ; infill
G1 X145.134 Y157.683 E85.68908 ; infill
G1 X174.747 Y128.070 E87.46109 ; infill
G1 X174.747 Y128.790 E87.49154 ; infill
G1 X145.853 Y157.683 E89.22050 ; infill
G1 X146.573 Y157.683 E89.25095 ; infill
G1 X174.747 Y129.509 E90.93683 ; infill
G1 X174.747 Y130.229 E90.96728 ; infill
G1 X147.293 Y157.683 E92.61011 ; infill
G1 X148.012 Y157.683 E92.64056 ; infill
G1 X174.747 Y130.949 E94.24032 ; infill
G1 X174.747 Y131.668 E94.27077 ; infill
G1 X148.732 Y157.683 E95.82748 ; infill
G1 X149.452 Y157.683 E95.85793 ; infill
G1 X174.747 Y132.388 E97.37156 ; infill
G1 X174.747 Y133.108 E97.40201 ; infill
G1 X150.171 Y157.683 E98.87259 ; infill
G1 X150.891 Y157.683 E98.90304 ; infill
G1 X174.747 Y133.827 E100.33055 ; infill
G1 X174.747 Y134.547 E100.36100 ; infill
G1 X151.611 Y157.683 E101.74545 ; infill
G1 X152.330 Y157.683 E101.77590 ; infill
G1 X174.747 Y135.267 E103.11729 ; infill
G1 X174.747 Y135.986 E103.14774 ; infill
G1 X153.050 Y157.683 E104.44606 ; infill
G1 X153.770 Y157.683 E104.47651 ; infill
G1 X174.747 Y136.706 E105.73178 ; infill
G1 X174.747 Y137.426 E105.76223 ; infill
G1 X154.489 Y157.683 E106.97443 ; infill
G1 X155.209 Y157.683 E107.00488 ; infill
G1 X174.747 Y138.145 E108.17401 ; infill
G1 X174.747 Y138.865 E108.20446 ; infill
G1 X155.929 Y157.683 E109.33054 ; infill
G1 X156.648 Y157.683 E109.36099 ; infill
G1 X174.747 Y139.585 E110.44400 ; infill
G1 X174.747 Y140.304 E110.47445 ; infill
G1 X157.368 Y157.683 E111.51440 ; infill
G1 X158.087 Y157.683 E111.54485 ; infill
G1 X174.747 Y141.024 E112.54173 ; infill
G1 X174.747 Y141.743 E112.57218 ; infill
G1 X158.807 Y157.683 E113.52601 ; infill
G1 X159.527 Y157.683 E113.55646 ; infill
G1 X174.747 Y142.463 E114.46722 ; infill
G1 X174.747 Y143.183 E114.49767 ; infill
G1 X160.246 Y157.683 E115.36537 ; infill
G1 X160.966 Y157.683 E115.39582 ; infill
G1 X174.747 Y143.902 E116.22045 ; infill
G1 X174.747 Y144.622 E116.25090 ; infill
G1 X161.686 Y157.683 E117.03248 ; infill
G1 X162.405 Y157.683 E117.06293 ; infill
G1 X174.747 Y145.342 E117.80144 ; infill
G1 X174.747 Y146.061 E117.83189 ; infill
G1 X163.125 Y157.683 E118.52733 ; infill
G1 X163.845 Y157.683 E118.55778 ; infill
G1 X174.747 Y146.781 E119.21017 ; infill
G1 X174.747 Y147.501 E119.24062 ; infill
G1 X164.564 Y157.683 E119.84994 ; infill
G1 X165.284 Y157.683 E119.88039 ; infill
G1 X174.747 Y148.220 E120.44665 ; infill
G1 X174.747 Y148.940 E120.47710 ; infill
G1 X166.004 Y157.683 E121.00030 ; infill
G1 X166.723 Y157.683 E121.03075 ; infill
G1 X174.747 Y149.660 E121.51088 ; infill
G1 X174.747 Y150.379 E121.54133 ; infill
G1 X167.443 Y157.683 E121.97840 ; infill
G1 X168.162 Y157.683 E122.00885 ; infill
G1 X174.747 Y151.099 E122.40286 ; infill
G1 X174.747 Y151.818 E122.43331 ; infill
G1 X168.882 Y157.683 E122.78426 ; infill
G1 X169.602 Y157.683 E122.81471 ; infill
G1 X174.747 Y152.538 E123.12259 ; infill
G1 X174.747 Y153.258 E123.15304 ; infill
G1 X170.321 Y157.683 E123.41786 ; infill
G1 X171.041 Y157.683 E123.44831 ; infill
G1 X174.747 Y153.977 E123.67007 ; infill
G1 X174.747 Y154.697 E123.70052 ; infill
G1 X171.761 Y157.683 E123.87922 ; infill
G1 X172.480 Y157.683 E123.90967 ; infill
G1 X174.747 Y155.417 E124.04530 ; infill
G1 X174.747 Y156.136 E124.07575 ; infill
G1 X173.200 Y157.683 E124.16832 ; infill
G1 X173.920 Y157.683 E124.19877 ; infill
G1 X174.747 Y156.856 E124.24828 ; infill
G1 X174.747 Y157.576 E124.27873 ; infill
G1 X174.639 Y157.683 E124.28517 ; infill
