; generated by Slic3r 1.3.1-dev (Build d17659b67c65bb5003ec92bf0d56ed7f8810e970) on 2018-09-14 at 13:48:18

; external perimeters extrusion width = 0.55mm (3.04mm^3/s)
; perimeters extrusion width = 0.55mm (3.04mm^3/s)
; infill extrusion width = 0.55mm (3.04mm^3/s)
; solid infill extrusion width = 0.55mm (3.04mm^3/s)
; top infill extrusion width = 0.55mm (3.04mm^3/s)

; external perimeters extrusion width = 0.02mm (-0.14mm^3/s)
; perimeters extrusion width = 0.55mm (3.04mm^3/s)
; infill extrusion width = 0.55mm (3.04mm^3/s)
; solid infill extrusion width = 0.55mm (3.04mm^3/s)
; top infill extrusion width = 0.55mm (3.04mm^3/s)

; external perimeters extrusion width = 0.55mm (3.04mm^3/s)
; perimeters extrusion width = 0.55mm (3.04mm^3/s)
; infill extrusion width = 0.55mm (3.04mm^3/s)
; solid infill extrusion width = 0.55mm (3.04mm^3/s)
; top infill extrusion width = 0.55mm (3.04mm^3/s)

M107 ; disable fan
M190 S95 ; set bed temperature and wait for it to be reached
M104 T10  S230
G21     ; use millimeters
G90     ; absolute coordinates
G0 Z5 ; lift head to avoid collisions
G28 X0 Y0 ; home X and Y
G92 X0 Y0 ; reset origin: X and Y
G0 X220 Y90
G92 X0 Y0
M83          ; relative extruder coordinates
M109 S230  ;wait for temperture to come up.
M756 S0.2  ;set flowfor the first layer please


; Filament gcode

;Start PNP

; Filament gcode

G21 ; set units to millimeters
G90 ; use absolute coordinates
M82 ; use absolute distances for extrusion
G92 E0 ; reset extrusion distance
G92 E0 ; reset extrusion distance
T0 ; change extruder
;announce new layer <0>
;---
M756 S0.2
M790 ;execute any new layer actions
;---
G1 Z0.200 F1800.000 ; move to next layer (0)
G1 E-4.00000 F2400.00000 ; retract extruder 0
G92 E0 ; reset extrusion distance
G1 X131.035 Y115.454 F1800.000 ; move to first skirt point
G1 E4.00000 F2400.00000 ; unretract extruder 0
G1 F1800
G1 X132.764 Y114.119 E4.09210 ; skirt
G1 X135.515 Y113.453 E4.21145 ; skirt
G1 X175.515 Y113.453 E5.89800 ; skirt
G1 X177.663 Y113.849 E5.99010 ; skirt
G1 X179.528 Y114.987 E6.08220 ; skirt
G1 X180.863 Y116.716 E6.17430 ; skirt
G1 X181.529 Y119.467 E6.29366 ; skirt
G1 X181.529 Y159.467 E7.98021 ; skirt
G1 X181.133 Y161.615 E8.07231 ; skirt
G1 X179.995 Y163.480 E8.16441 ; skirt
G1 X178.266 Y164.815 E8.25651 ; skirt
G1 X175.515 Y165.481 E8.37586 ; skirt
G1 X135.515 Y165.481 E10.06241 ; skirt
G1 X133.367 Y165.084 E10.15451 ; skirt
G1 X131.503 Y163.947 E10.24661 ; skirt
G1 X130.167 Y162.218 E10.33871 ; skirt
G1 X129.501 Y159.467 E10.45807 ; skirt
G1 X129.501 Y119.467 E12.14462 ; skirt
G1 X129.898 Y117.319 E12.23672 ; skirt
G1 X130.996 Y115.518 E12.32566 ; skirt
G1 X131.537 Y115.659 F1800.000 ; move to first skirt point
G1 F1800
G1 X133.241 Y114.451 E12.41375 ; skirt
G1 X135.515 Y113.960 E12.51184 ; skirt
G1 X175.515 Y113.960 E14.19840 ; skirt
G1 X177.567 Y114.356 E14.28650 ; skirt
G1 X179.323 Y115.488 E14.37459 ; skirt
G1 X180.531 Y117.193 E14.46269 ; skirt
G1 X181.022 Y119.467 E14.56078 ; skirt
G1 X181.022 Y159.467 E16.24733 ; skirt
G1 X180.626 Y161.518 E16.33543 ; skirt
G1 X179.494 Y163.275 E16.42353 ; skirt
G1 X177.789 Y164.483 E16.51163 ; skirt
G1 X175.515 Y164.974 E16.60972 ; skirt
G1 X135.515 Y164.974 E18.29627 ; skirt
G1 X133.464 Y164.578 E18.38437 ; skirt
G1 X131.708 Y163.446 E18.47247 ; skirt
G1 X130.499 Y161.741 E18.56056 ; skirt
G1 X130.008 Y159.467 E18.65865 ; skirt
G1 X130.008 Y119.467 E20.34521 ; skirt
G1 X130.404 Y117.415 E20.43330 ; skirt
G1 X131.496 Y115.722 E20.51824 ; skirt
G1 X132.731 Y116.958 F1800.000 ; move to first brim point
G1 F1800
G1 X133.965 Y115.724 E20.60113 ; brim
G1 X177.066 Y115.724 E22.64904 ; brim
G1 X179.258 Y117.917 E22.79637 ; brim
G1 X179.258 Y161.017 E24.84428 ; brim
G1 X177.066 Y163.210 E24.99161 ; brim
G1 X133.965 Y163.210 E27.03952 ; brim
G1 X131.772 Y161.017 E27.18685 ; brim
G1 X131.772 Y117.917 E29.23476 ; brim
G1 X132.678 Y117.011 E29.29563 ; brim
G1 X133.082 Y117.415 F1800.000 ; move to first brim point
G1 F1800
G1 X134.202 Y116.295 E29.37084 ; brim
G1 X176.829 Y116.295 E31.39626 ; brim
G1 X178.687 Y118.153 E31.52110 ; brim
G1 X178.687 Y160.781 E33.54651 ; brim
G1 X176.829 Y162.638 E33.67135 ; brim
G1 X134.202 Y162.638 E35.69676 ; brim
G1 X132.344 Y160.781 E35.82160 ; brim
G1 X132.344 Y118.153 E37.84702 ; brim
G1 X133.029 Y117.468 E37.89308 ; brim
G1 X133.433 Y117.872 F1800.000 ; move to first brim point
G1 F1800
G1 X134.438 Y116.867 E37.96061 ; brim
G1 X176.592 Y116.867 E39.96353 ; brim
G1 X178.115 Y118.390 E40.06588 ; brim
G1 X178.115 Y160.544 E42.06880 ; brim
G1 X176.592 Y162.067 E42.17114 ; brim
G1 X134.438 Y162.067 E44.17407 ; brim
G1 X132.915 Y160.544 E44.27641 ; brim
G1 X132.915 Y118.390 E46.27934 ; brim
G1 X133.380 Y117.925 E46.31059 ; brim
G1 X133.784 Y118.329 F1800.000 ; move to first brim point
G1 F1800
G1 X134.675 Y117.438 E46.37043 ; brim
G1 X176.355 Y117.438 E48.35086 ; brim
G1 X177.544 Y118.627 E48.43072 ; brim
G1 X177.544 Y160.307 E50.41115 ; brim
G1 X176.355 Y161.496 E50.49100 ; brim
G1 X134.675 Y161.496 E52.47143 ; brim
G1 X133.487 Y160.307 E52.55128 ; brim
G1 X133.487 Y118.627 E54.53171 ; brim
G1 X133.731 Y118.382 E54.54815 ; brim
G1 X134.135 Y118.786 F1800.000 ; move to first brim point
G1 F1800
G1 X134.912 Y118.010 E54.60032 ; brim
G1 X176.119 Y118.010 E56.55826 ; brim
G1 X176.972 Y118.863 E56.61561 ; brim
G1 X176.972 Y160.071 E58.57355 ; brim
G1 X176.119 Y160.924 E58.63091 ; brim
G1 X134.912 Y160.924 E60.58885 ; brim
G1 X134.058 Y160.071 E60.64621 ; brim
G1 X134.058 Y118.863 E62.60415 ; brim
G1 X134.082 Y118.839 E62.60578 ; brim
G1 X134.629 Y119.100 F1800.000 ; move to first brim point
G1 F1800
G1 X135.148 Y118.581 E62.64064 ; brim
G1 X175.882 Y118.581 E64.57609 ; brim
G1 X176.401 Y119.100 E64.61096 ; brim
G1 X176.401 Y159.834 E66.54640 ; brim
G1 X175.882 Y160.353 E66.58127 ; brim
G1 X135.148 Y160.353 E68.51671 ; brim
G1 X134.629 Y159.834 E68.55158 ; brim
G1 X134.629 Y119.175 E70.48346 ; brim
G1 X135.201 Y119.337 F1800.000 ; move to first brim point
G1 F1800
G1 X135.385 Y119.153 E70.49583 ; brim
G1 X175.645 Y119.153 E72.40879 ; brim
G1 X175.830 Y119.337 E72.42116 ; brim
G1 X175.830 Y159.597 E74.33411 ; brim
G1 X175.645 Y159.781 E74.34649 ; brim
G1 X135.385 Y159.781 E76.25944 ; brim
G1 X135.201 Y159.597 E76.27181 ; brim
G1 X135.201 Y119.412 E78.18120 ; brim
G1 X135.790 Y119.742 F1800.000 ; move to first external perimeter point
G1 F1800
G1 X175.240 Y119.742 E79.84457 ; external perimeter
G1 X175.240 Y159.192 E81.50793 ; external perimeter
G1 X135.790 Y159.192 E83.17129 ; external perimeter
G1 X135.790 Y119.817 E84.83149 ; external perimeter
G1 X135.790 Y119.742 F1800.000 ; move inwards before travel
G1 E80.83149 F2400.00000 ; retract extruder 0
G92 E0 ; reset extrusion distance
G1 X136.297 Y128.134 F1800.000 ; move to first perimeter point
G1 E4.00000 F2400.00000 ; unretract extruder 0
G1 F1800
G1 X136.297 Y120.249 E4.33248 ; perimeter
G1 X174.733 Y120.249 E5.95308 ; perimeter
G1 X174.733 Y158.685 E7.57368 ; perimeter
G1 X136.297 Y158.685 E9.19429 ; perimeter
G1 X136.297 Y128.209 E10.47925 ; perimeter
G1 E6.47925 F2400.00000 ; retract extruder 0
G92 E0 ; reset extrusion distance
G1 X136.858 Y120.702 F1800.000 ; move to first infill point
G1 E4.00000 F2400.00000 ; unretract extruder 0
G1 F1800
G1 X136.751 Y120.810 E4.00645 ; infill
G1 X136.751 Y121.530 E4.03690 ; infill
G1 X137.578 Y120.702 E4.08641 ; infill
G1 X138.298 Y120.702 E4.11686 ; infill
G1 X136.751 Y122.249 E4.20944 ; infill
G1 X136.751 Y122.969 E4.23989 ; infill
G1 X139.017 Y120.702 E4.37552 ; infill
G1 X139.737 Y120.702 E4.40597 ; infill
G1 X136.751 Y123.689 E4.58467 ; infill
G1 X136.751 Y124.408 E4.61512 ; infill
G1 X140.457 Y120.702 E4.83688 ; infill
G1 X141.176 Y120.702 E4.86733 ; infill
G1 X136.751 Y125.128 E5.13216 ; infill
G1 X136.751 Y125.848 E5.16261 ; infill
G1 X141.896 Y120.702 E5.47050 ; infill
G1 X142.615 Y120.702 E5.50095 ; infill
G1 X136.751 Y126.567 E5.85190 ; infill
G1 X136.751 Y127.287 E5.88235 ; infill
G1 X143.335 Y120.702 E6.27636 ; infill
G1 X144.055 Y120.702 E6.30681 ; infill
G1 X136.751 Y128.007 E6.74389 ; infill
G1 X136.751 Y128.726 E6.77434 ; infill
G1 X144.774 Y120.702 E7.25447 ; infill
G1 X145.494 Y120.702 E7.28492 ; infill
G1 X136.751 Y129.446 E7.80813 ; infill
G1 X136.751 Y130.165 E7.83858 ; infill
G1 X146.214 Y120.702 E8.40484 ; infill
G1 X146.933 Y120.702 E8.43529 ; infill
G1 X136.751 Y130.885 E9.04462 ; infill
G1 X136.751 Y131.605 E9.07507 ; infill
G1 X147.653 Y120.702 E9.72745 ; infill
G1 X148.373 Y120.702 E9.75790 ; infill
G1 X136.751 Y132.324 E10.45336 ; infill
G1 X136.751 Y133.044 E10.48381 ; infill
G1 X149.092 Y120.702 E11.22232 ; infill
G1 X149.812 Y120.702 E11.25277 ; infill
G1 X136.751 Y133.764 E12.03435 ; infill
G1 X136.751 Y134.483 E12.06480 ; infill
G1 X150.532 Y120.702 E12.88944 ; infill
G1 X151.251 Y120.702 E12.91989 ; infill
G1 X136.751 Y135.203 E13.78759 ; infill
G1 X136.751 Y135.923 E13.81804 ; infill
G1 X151.971 Y120.702 E14.72880 ; infill
G1 X152.691 Y120.702 E14.75925 ; infill
G1 X136.751 Y136.642 E15.71308 ; infill
G1 X136.751 Y137.362 E15.74353 ; infill
G1 X153.410 Y120.702 E16.74042 ; infill
G1 X154.130 Y120.702 E16.77087 ; infill
G1 X136.751 Y138.082 E17.81082 ; infill
G1 X136.751 Y138.801 E17.84127 ; infill
G1 X154.849 Y120.702 E18.92429 ; infill
G1 X155.569 Y120.702 E18.95474 ; infill
G1 X136.751 Y139.521 E20.08082 ; infill
G1 X136.751 Y140.240 E20.11127 ; infill
G1 X156.289 Y120.702 E21.28041 ; infill
G1 X157.008 Y120.702 E21.31086 ; infill
G1 X136.751 Y140.960 E22.52306 ; infill
G1 X136.751 Y141.680 E22.55351 ; infill
G1 X157.728 Y120.702 E23.80878 ; infill
G1 X158.448 Y120.702 E23.83923 ; infill
G1 X136.751 Y142.399 E25.13756 ; infill
G1 X136.751 Y143.119 E25.16801 ; infill
G1 X159.167 Y120.702 E26.50940 ; infill
G1 X159.887 Y120.702 E26.53985 ; infill
G1 X136.751 Y143.839 E27.92430 ; infill
G1 X136.751 Y144.558 E27.95475 ; infill
G1 X160.607 Y120.702 E29.38227 ; infill
G1 X161.326 Y120.702 E29.41272 ; infill
G1 X136.751 Y145.278 E30.88330 ; infill
G1 X136.751 Y145.998 E30.91375 ; infill
G1 X162.046 Y120.702 E32.42739 ; infill
G1 X162.766 Y120.702 E32.45784 ; infill
G1 X136.751 Y146.717 E34.01455 ; infill
G1 X136.751 Y147.437 E34.04500 ; infill
G1 X163.485 Y120.702 E35.64476 ; infill
G1 X164.205 Y120.702 E35.67521 ; infill
G1 X136.751 Y148.157 E37.31805 ; infill
G1 X136.751 Y148.876 E37.34850 ; infill
G1 X164.924 Y120.702 E39.03439 ; infill
G1 X165.644 Y120.702 E39.06484 ; infill
G1 X136.751 Y149.596 E40.79379 ; infill
G1 X136.751 Y150.316 E40.82424 ; infill
G1 X166.364 Y120.702 E42.59626 ; infill
G1 X167.083 Y120.702 E42.62671 ; infill
G1 X136.751 Y151.035 E44.44179 ; infill
G1 X136.751 Y151.755 E44.47224 ; infill
G1 X167.803 Y120.702 E46.33039 ; infill
G1 X168.523 Y120.702 E46.36084 ; infill
G1 X136.751 Y152.474 E48.26204 ; infill
G1 X136.751 Y153.194 E48.29249 ; infill
G1 X169.242 Y120.702 E50.23676 ; infill
G1 X169.962 Y120.702 E50.26721 ; infill
G1 X136.751 Y153.914 E52.25454 ; infill
G1 X136.751 Y154.633 E52.28499 ; infill
G1 X170.682 Y120.702 E54.31539 ; infill
G1 X171.401 Y120.702 E54.34584 ; infill
G1 X136.751 Y155.353 E56.41929 ; infill
G1 X136.751 Y156.073 E56.44974 ; infill
G1 X172.121 Y120.702 E58.56626 ; infill
G1 X172.841 Y120.702 E58.59671 ; infill
G1 X136.751 Y156.792 E60.75630 ; infill
G1 X136.751 Y157.512 E60.78675 ; infill
G1 X173.560 Y120.702 E62.98939 ; infill
G1 X174.280 Y120.702 E63.01984 ; infill
G1 X136.751 Y158.232 E65.26554 ; infill
G1 X137.470 Y158.232 E65.29599 ; infill
G1 X174.280 Y121.422 E67.49863 ; infill
G1 X174.280 Y122.142 E67.52908 ; infill
G1 X138.190 Y158.232 E69.68866 ; infill
G1 X138.910 Y158.232 E69.71911 ; infill
G1 X174.280 Y122.861 E71.83563 ; infill
G1 X174.280 Y123.581 E71.86608 ; infill
G1 X139.629 Y158.232 E73.93953 ; infill
G1 X140.349 Y158.232 E73.96998 ; infill
G1 X174.280 Y124.301 E76.00037 ; infill
G1 X174.280 Y125.020 E76.03082 ; infill
G1 X141.068 Y158.232 E78.01815 ; infill
G1 X141.788 Y158.232 E78.04860 ; infill
G1 X174.280 Y125.740 E79.99286 ; infill
G1 X174.280 Y126.459 E80.02331 ; infill
G1 X142.508 Y158.232 E81.92451 ; infill
G1 X143.227 Y158.232 E81.95496 ; infill
G1 X174.280 Y127.179 E83.81310 ; infill
G1 X174.280 Y127.899 E83.84355 ; infill
G1 X143.947 Y158.232 E85.65863 ; infill
G1 X144.667 Y158.232 E85.68908 ; infill
G1 X174.280 Y128.618 E87.46109 ; infill
G1 X174.280 Y129.338 E87.49154 ; infill
G1 X145.386 Y158.232 E89.22050 ; infill
G1 X146.106 Y158.232 E89.25095 ; infill
G1 X174.280 Y130.058 E90.93683 ; infill
G1 X174.280 Y130.777 E90.96728 ; infill
G1 X146.826 Y158.232 E92.61011 ; infill
G1 X147.545 Y158.232 E92.64056 ; infill
G1 X174.280 Y131.497 E94.24032 ; infill
G1 X174.280 Y132.217 E94.27077 ; infill
G1 X148.265 Y158.232 E95.82748 ; infill
G1 X148.985 Y158.232 E95.85793 ; infill
G1 X174.280 Y132.936 E97.37156 ; infill
G1 X174.280 Y133.656 E97.40201 ; infill
G1 X149.704 Y158.232 E98.87259 ; infill
G1 X150.424 Y158.232 E98.90304 ; infill
G1 X174.280 Y134.376 E100.33055 ; infill
G1 X174.280 Y135.095 E100.36100 ; infill
G1 X151.143 Y158.232 E101.74545 ; infill
G1 X151.863 Y158.232 E101.77590 ; infill
G1 X174.280 Y135.815 E103.11729 ; infill
G1 X174.280 Y136.535 E103.14774 ; infill
G1 X152.583 Y158.232 E104.44606 ; infill
G1 X153.302 Y158.232 E104.47651 ; infill
G1 X174.280 Y137.254 E105.73178 ; infill
G1 X174.280 Y137.974 E105.76223 ; infill
G1 X154.022 Y158.232 E106.97443 ; infill
G1 X154.742 Y158.232 E107.00488 ; infill
G1 X174.280 Y138.693 E108.17401 ; infill
G1 X174.280 Y139.413 E108.20446 ; infill
G1 X155.461 Y158.232 E109.33054 ; infill
G1 X156.181 Y158.232 E109.36099 ; infill
G1 X174.280 Y140.133 E110.44400 ; infill
G1 X174.280 Y140.852 E110.47445 ; infill
G1 X156.901 Y158.232 E111.51440 ; infill
G1 X157.620 Y158.232 E111.54485 ; infill
G1 X174.280 Y141.572 E112.54173 ; infill
G1 X174.280 Y142.292 E112.57218 ; infill
G1 X158.340 Y158.232 E113.52601 ; infill
G1 X159.060 Y158.232 E113.55646 ; infill
G1 X174.280 Y143.011 E114.46722 ; infill
G1 X174.280 Y143.731 E114.49767 ; infill
G1 X159.779 Y158.232 E115.36537 ; infill
G1 X160.499 Y158.232 E115.39582 ; infill
G1 X174.280 Y144.451 E116.22045 ; infill
G1 X174.280 Y145.170 E116.25090 ; infill
G1 X161.219 Y158.232 E117.03248 ; infill
G1 X161.938 Y158.232 E117.06293 ; infill
G1 X174.280 Y145.890 E117.80144 ; infill
G1 X174.280 Y146.610 E117.83189 ; infill
G1 X162.658 Y158.232 E118.52733 ; infill
G1 X163.377 Y158.232 E118.55778 ; infill
G1 X174.280 Y147.329 E119.21017 ; infill
G1 X174.280 Y148.049 E119.24062 ; infill
G1 X164.097 Y158.232 E119.84994 ; infill
G1 X164.817 Y158.232 E119.88039 ; infill
G1 X174.280 Y148.768 E120.44665 ; infill
G1 X174.280 Y149.488 E120.47710 ; infill
G1 X165.536 Y158.232 E121.00030 ; infill
G1 X166.256 Y158.232 E121.03075 ; infill
G1 X174.280 Y150.208 E121.51088 ; infill
G1 X174.280 Y150.927 E121.54133 ; infill
G1 X166.976 Y158.232 E121.97840 ; infill
G1 X167.695 Y158.232 E122.00885 ; infill
G1 X174.280 Y151.647 E122.40286 ; infill
G1 X174.280 Y152.367 E122.43331 ; infill
G1 X168.415 Y158.232 E122.78426 ; infill
G1 X169.135 Y158.232 E122.81471 ; infill
G1 X174.280 Y153.086 E123.12259 ; infill
G1 X174.280 Y153.806 E123.15304 ; infill
G1 X169.854 Y158.232 E123.41786 ; infill
G1 X170.574 Y158.232 E123.44831 ; infill
G1 X174.280 Y154.526 E123.67007 ; infill
G1 X174.280 Y155.245 E123.70052 ; infill
G1 X171.294 Y158.232 E123.87922 ; infill
G1 X172.013 Y158.232 E123.90967 ; infill
G1 X174.280 Y155.965 E124.04530 ; infill
G1 X174.280 Y156.685 E124.07575 ; infill
G1 X172.733 Y158.232 E124.16832 ; infill
G1 X173.452 Y158.232 E124.19877 ; infill
G1 X174.280 Y157.404 E124.24828 ; infill
G1 X174.280 Y158.124 E124.27873 ; infill
