; generated by Slic3r 1.3.1-dev (Build d17659b67c65bb5003ec92bf0d56ed7f8810e970) on 2018-10-11 at 17:06:08

; external perimeters extrusion width = 0.55mm (1.01mm^3/s)
; perimeters extrusion width = 0.55mm (3.04mm^3/s)
; infill extrusion width = 0.55mm (3.04mm^3/s)
; solid infill extrusion width = 0.55mm (3.04mm^3/s)
; top infill extrusion width = 0.55mm (3.04mm^3/s)

; external perimeters extrusion width = 0.02mm (-0.05mm^3/s)
; perimeters extrusion width = 0.55mm (3.04mm^3/s)
; infill extrusion width = 0.55mm (3.04mm^3/s)
; solid infill extrusion width = 0.55mm (3.04mm^3/s)
; top infill extrusion width = 0.55mm (3.04mm^3/s)

M107 ; disable fan
M190 S95 ; set bed temperature and wait for it to be reached
M104 T10  S230
G21     ; use millimeters
G90     ; absolute coordinates
G0 Z5 ; lift head to avoid collisions
G28 X0 Y0 ; home X and Y
G92 X0 Y0 ; reset origin: X and Y
G0 X220 Y90
G92 X0 Y0
M83          ; relative extruder coordinates
M109 S230  ;wait for temperture to come up.
M756 S0.2  ;set flowfor the first layer please








G21 ; set units to millimeters
G90 ; use absolute coordinates
M82 ; use absolute distances for extrusion
G92 E0 ; reset extrusion distance
G92 E0 ; reset extrusion distance
T0 ; change extruder
;announce new layer <0>
;---
M756 S0.2
M790 ;execute any new layer actions
;---
G1 Z0.200 F1800.000 ; move to next layer (0)
G1 E-4.00000 F2400.00000 ; retract extruder 0
G92 E0 ; reset extrusion distance
G1 X125.520 Y125.987 F1800.000 ; move to first skirt point
G1 E4.00000 F2400.00000 ; unretract extruder 0
G1 F1800
G1 X127.249 Y124.652 E4.09210 ; skirt
G1 X130.000 Y123.986 E4.21145 ; skirt
G1 X170.000 Y123.986 E5.89800 ; skirt
G1 X172.148 Y124.383 E5.99010 ; skirt
G1 X174.013 Y125.520 E6.08220 ; skirt
G1 X175.348 Y127.249 E6.17430 ; skirt
G1 X176.014 Y130.000 E6.29366 ; skirt
G1 X176.014 Y170.000 E7.98021 ; skirt
G1 X175.617 Y172.148 E8.07231 ; skirt
G1 X174.480 Y174.013 E8.16441 ; skirt
G1 X172.751 Y175.348 E8.25651 ; skirt
G1 X170.000 Y176.014 E8.37586 ; skirt
G1 X130.000 Y176.014 E10.06241 ; skirt
G1 X127.852 Y175.617 E10.15451 ; skirt
G1 X125.987 Y174.480 E10.24661 ; skirt
G1 X124.652 Y172.751 E10.33871 ; skirt
G1 X123.986 Y170.000 E10.45807 ; skirt
G1 X123.986 Y130.000 E12.14462 ; skirt
G1 X124.383 Y127.852 E12.23672 ; skirt
G1 X125.481 Y126.051 E12.32566 ; skirt
G1 X126.021 Y126.192 F1800.000 ; move to first skirt point
G1 F1800
G1 X127.726 Y124.984 E12.41375 ; skirt
G1 X130.000 Y124.493 E12.51184 ; skirt
G1 X170.000 Y124.493 E14.19840 ; skirt
G1 X172.051 Y124.889 E14.28650 ; skirt
G1 X173.808 Y126.021 E14.37459 ; skirt
G1 X175.016 Y127.726 E14.46269 ; skirt
G1 X175.507 Y130.000 E14.56078 ; skirt
G1 X175.507 Y170.000 E16.24733 ; skirt
G1 X175.111 Y172.051 E16.33543 ; skirt
G1 X173.979 Y173.808 E16.42353 ; skirt
G1 X172.274 Y175.016 E16.51163 ; skirt
G1 X170.000 Y175.507 E16.60972 ; skirt
G1 X130.000 Y175.507 E18.29627 ; skirt
G1 X127.949 Y175.111 E18.38437 ; skirt
G1 X126.192 Y173.979 E18.47247 ; skirt
G1 X124.984 Y172.274 E18.56056 ; skirt
G1 X124.493 Y170.000 E18.65865 ; skirt
G1 X124.493 Y130.000 E20.34521 ; skirt
G1 X124.889 Y127.949 E20.43330 ; skirt
G1 X125.981 Y126.255 E20.51824 ; skirt
G1 X127.216 Y127.491 F1800.000 ; move to first brim point
G1 F1800
G1 X128.450 Y126.257 E20.60113 ; brim
G1 X171.550 Y126.257 E22.64904 ; brim
G1 X173.743 Y128.450 E22.79637 ; brim
G1 X173.743 Y171.550 E24.84428 ; brim
G1 X171.550 Y173.743 E24.99161 ; brim
G1 X128.450 Y173.743 E27.03952 ; brim
G1 X126.257 Y171.550 E27.18685 ; brim
G1 X126.257 Y128.450 E29.23476 ; brim
G1 X127.163 Y127.544 E29.29563 ; brim
G1 X127.567 Y127.948 F1800.000 ; move to first brim point
G1 F1800
G1 X128.686 Y126.829 E29.37084 ; brim
G1 X171.314 Y126.829 E31.39626 ; brim
G1 X173.171 Y128.686 E31.52110 ; brim
G1 X173.171 Y171.314 E33.54651 ; brim
G1 X171.314 Y173.171 E33.67135 ; brim
G1 X128.686 Y173.171 E35.69676 ; brim
G1 X126.829 Y171.314 E35.82160 ; brim
G1 X126.829 Y128.686 E37.84702 ; brim
G1 X127.514 Y128.001 E37.89308 ; brim
G1 X127.918 Y128.405 F1800.000 ; move to first brim point
G1 F1800
G1 X128.923 Y127.400 E37.96061 ; brim
G1 X171.077 Y127.400 E39.96353 ; brim
G1 X172.600 Y128.923 E40.06588 ; brim
G1 X172.600 Y171.077 E42.06880 ; brim
G1 X171.077 Y172.600 E42.17114 ; brim
G1 X128.923 Y172.600 E44.17407 ; brim
G1 X127.400 Y171.077 E44.27641 ; brim
G1 X127.400 Y128.923 E46.27934 ; brim
G1 X127.865 Y128.458 E46.31059 ; brim
G1 X128.269 Y128.862 F1800.000 ; move to first brim point
G1 F1800
G1 X129.160 Y127.971 E46.37043 ; brim
G1 X170.840 Y127.971 E48.35086 ; brim
G1 X172.029 Y129.160 E48.43072 ; brim
G1 X172.029 Y170.840 E50.41115 ; brim
G1 X170.840 Y172.029 E50.49100 ; brim
G1 X129.160 Y172.029 E52.47143 ; brim
G1 X127.971 Y170.840 E52.55128 ; brim
G1 X127.971 Y129.160 E54.53171 ; brim
G1 X128.216 Y128.915 E54.54815 ; brim
G1 X128.620 Y129.319 F1800.000 ; move to first brim point
G1 F1800
G1 X129.396 Y128.543 E54.60032 ; brim
G1 X170.604 Y128.543 E56.55826 ; brim
G1 X171.457 Y129.396 E56.61561 ; brim
G1 X171.457 Y170.604 E58.57355 ; brim
G1 X170.604 Y171.457 E58.63091 ; brim
G1 X129.396 Y171.457 E60.58885 ; brim
G1 X128.543 Y170.604 E60.64621 ; brim
G1 X128.543 Y129.396 E62.60415 ; brim
G1 X128.567 Y129.372 E62.60578 ; brim
G1 X129.114 Y129.633 F1800.000 ; move to first brim point
G1 F1800
G1 X129.633 Y129.114 E62.64064 ; brim
G1 X170.367 Y129.114 E64.57609 ; brim
G1 X170.886 Y129.633 E64.61096 ; brim
G1 X170.886 Y170.367 E66.54640 ; brim
G1 X170.367 Y170.886 E66.58127 ; brim
G1 X129.633 Y170.886 E68.51671 ; brim
G1 X129.114 Y170.367 E68.55158 ; brim
G1 X129.114 Y129.708 E70.48346 ; brim
G1 X129.686 Y129.870 F1800.000 ; move to first brim point
G1 F1800
G1 X129.870 Y129.686 E70.49583 ; brim
G1 X170.130 Y129.686 E72.40879 ; brim
G1 X170.314 Y129.870 E72.42116 ; brim
G1 X170.314 Y170.130 E74.33411 ; brim
G1 X170.130 Y170.314 E74.34649 ; brim
G1 X129.870 Y170.314 E76.25944 ; brim
G1 X129.686 Y170.130 E76.27181 ; brim
G1 X129.686 Y129.945 E78.18120 ; brim
G1 X130.275 Y130.275 F1800.000 ; move to first external perimeter point
G1 F1800
G1 X169.725 Y130.275 E79.84457 ; external perimeter
G1 X169.725 Y169.725 E81.50793 ; external perimeter
G1 X130.275 Y169.725 E83.17129 ; external perimeter
G1 X130.275 Y130.350 E84.83149 ; external perimeter
G1 X130.275 Y130.275 F1800.000 ; move inwards before travel
G1 E80.83149 F2400.00000 ; retract extruder 0
G92 E0 ; reset extrusion distance
G1 X130.782 Y138.667 F1800.000 ; move to first perimeter point
G1 E4.00000 F2400.00000 ; unretract extruder 0
G1 F1800
G1 X130.782 Y130.782 E4.33248 ; perimeter
G1 X169.218 Y130.782 E5.95308 ; perimeter
G1 X169.218 Y169.218 E7.57368 ; perimeter
G1 X130.782 Y169.218 E9.19429 ; perimeter
G1 X130.782 Y138.742 E10.47925 ; perimeter
G1 E6.47925 F2400.00000 ; retract extruder 0
G92 E0 ; reset extrusion distance
G1 X131.343 Y131.235 F1800.000 ; move to first infill point
G1 E4.00000 F2400.00000 ; unretract extruder 0
G1 F1800
G1 X131.235 Y131.343 E4.00645 ; infill
G1 X131.235 Y132.063 E4.03690 ; infill
G1 X132.063 Y131.235 E4.08641 ; infill
G1 X132.782 Y131.235 E4.11686 ; infill
G1 X131.235 Y132.782 E4.20944 ; infill
G1 X131.235 Y133.502 E4.23989 ; infill
G1 X133.502 Y131.235 E4.37552 ; infill
G1 X134.222 Y131.235 E4.40597 ; infill
G1 X131.235 Y134.222 E4.58467 ; infill
G1 X131.235 Y134.941 E4.61512 ; infill
G1 X134.941 Y131.235 E4.83688 ; infill
G1 X135.661 Y131.235 E4.86733 ; infill
G1 X131.235 Y135.661 E5.13216 ; infill
G1 X131.235 Y136.381 E5.16261 ; infill
G1 X136.381 Y131.235 E5.47050 ; infill
G1 X137.100 Y131.235 E5.50095 ; infill
G1 X131.235 Y137.100 E5.85190 ; infill
G1 X131.235 Y137.820 E5.88235 ; infill
G1 X137.820 Y131.235 E6.27636 ; infill
G1 X138.540 Y131.235 E6.30681 ; infill
G1 X131.235 Y138.540 E6.74389 ; infill
G1 X131.235 Y139.259 E6.77434 ; infill
G1 X139.259 Y131.235 E7.25447 ; infill
G1 X139.979 Y131.235 E7.28492 ; infill
G1 X131.235 Y139.979 E7.80813 ; infill
G1 X131.235 Y140.699 E7.83858 ; infill
G1 X140.699 Y131.235 E8.40484 ; infill
G1 X141.418 Y131.235 E8.43529 ; infill
G1 X131.235 Y141.418 E9.04462 ; infill
G1 X131.235 Y142.138 E9.07507 ; infill
G1 X142.138 Y131.235 E9.72745 ; infill
G1 X142.857 Y131.235 E9.75790 ; infill
G1 X131.235 Y142.857 E10.45336 ; infill
G1 X131.235 Y143.577 E10.48381 ; infill
G1 X143.577 Y131.235 E11.22232 ; infill
G1 X144.297 Y131.235 E11.25277 ; infill
G1 X131.235 Y144.297 E12.03435 ; infill
G1 X131.235 Y145.016 E12.06480 ; infill
G1 X145.016 Y131.235 E12.88944 ; infill
G1 X145.736 Y131.235 E12.91989 ; infill
G1 X131.235 Y145.736 E13.78759 ; infill
G1 X131.235 Y146.456 E13.81804 ; infill
G1 X146.456 Y131.235 E14.72880 ; infill
G1 X147.175 Y131.235 E14.75925 ; infill
G1 X131.235 Y147.175 E15.71308 ; infill
G1 X131.235 Y147.895 E15.74353 ; infill
G1 X147.895 Y131.235 E16.74042 ; infill
G1 X148.615 Y131.235 E16.77087 ; infill
G1 X131.235 Y148.615 E17.81082 ; infill
G1 X131.235 Y149.334 E17.84127 ; infill
G1 X149.334 Y131.235 E18.92429 ; infill
G1 X150.054 Y131.235 E18.95474 ; infill
G1 X131.235 Y150.054 E20.08082 ; infill
G1 X131.235 Y150.774 E20.11127 ; infill
G1 X150.774 Y131.235 E21.28041 ; infill
G1 X151.493 Y131.235 E21.31086 ; infill
G1 X131.235 Y151.493 E22.52306 ; infill
G1 X131.235 Y152.213 E22.55351 ; infill
G1 X152.213 Y131.235 E23.80878 ; infill
G1 X152.932 Y131.235 E23.83923 ; infill
G1 X131.235 Y152.932 E25.13756 ; infill
G1 X131.235 Y153.652 E25.16801 ; infill
G1 X153.652 Y131.235 E26.50940 ; infill
G1 X154.372 Y131.235 E26.53985 ; infill
G1 X131.235 Y154.372 E27.92430 ; infill
G1 X131.235 Y155.091 E27.95475 ; infill
G1 X155.091 Y131.235 E29.38227 ; infill
G1 X155.811 Y131.235 E29.41272 ; infill
G1 X131.235 Y155.811 E30.88330 ; infill
G1 X131.235 Y156.531 E30.91375 ; infill
G1 X156.531 Y131.235 E32.42739 ; infill
G1 X157.250 Y131.235 E32.45784 ; infill
G1 X131.235 Y157.250 E34.01455 ; infill
G1 X131.235 Y157.970 E34.04500 ; infill
G1 X157.970 Y131.235 E35.64476 ; infill
G1 X158.690 Y131.235 E35.67521 ; infill
G1 X131.235 Y158.690 E37.31805 ; infill
G1 X131.235 Y159.409 E37.34850 ; infill
G1 X159.409 Y131.235 E39.03439 ; infill
G1 X160.129 Y131.235 E39.06484 ; infill
G1 X131.235 Y160.129 E40.79379 ; infill
G1 X131.235 Y160.849 E40.82424 ; infill
G1 X160.849 Y131.235 E42.59626 ; infill
G1 X161.568 Y131.235 E42.62671 ; infill
G1 X131.235 Y161.568 E44.44179 ; infill
G1 X131.235 Y162.288 E44.47224 ; infill
G1 X162.288 Y131.235 E46.33039 ; infill
G1 X163.008 Y131.235 E46.36084 ; infill
G1 X131.235 Y163.008 E48.26204 ; infill
G1 X131.235 Y163.727 E48.29249 ; infill
G1 X163.727 Y131.235 E50.23676 ; infill
G1 X164.447 Y131.235 E50.26721 ; infill
G1 X131.235 Y164.447 E52.25454 ; infill
G1 X131.235 Y165.166 E52.28499 ; infill
G1 X165.166 Y131.235 E54.31539 ; infill
G1 X165.886 Y131.235 E54.34584 ; infill
G1 X131.235 Y165.886 E56.41929 ; infill
G1 X131.235 Y166.606 E56.44974 ; infill
G1 X166.606 Y131.235 E58.56626 ; infill
G1 X167.325 Y131.235 E58.59671 ; infill
G1 X131.235 Y167.325 E60.75630 ; infill
G1 X131.235 Y168.045 E60.78675 ; infill
G1 X168.045 Y131.235 E62.98939 ; infill
G1 X168.765 Y131.235 E63.01984 ; infill
G1 X131.235 Y168.765 E65.26554 ; infill
G1 X131.955 Y168.765 E65.29599 ; infill
G1 X168.765 Y131.955 E67.49863 ; infill
G1 X168.765 Y132.675 E67.52908 ; infill
G1 X132.675 Y168.765 E69.68866 ; infill
G1 X133.394 Y168.765 E69.71911 ; infill
G1 X168.765 Y133.394 E71.83563 ; infill
G1 X168.765 Y134.114 E71.86608 ; infill
G1 X134.114 Y168.765 E73.93953 ; infill
G1 X134.834 Y168.765 E73.96998 ; infill
G1 X168.765 Y134.834 E76.00037 ; infill
G1 X168.765 Y135.553 E76.03082 ; infill
G1 X135.553 Y168.765 E78.01815 ; infill
G1 X136.273 Y168.765 E78.04860 ; infill
G1 X168.765 Y136.273 E79.99286 ; infill
G1 X168.765 Y136.993 E80.02331 ; infill
G1 X136.993 Y168.765 E81.92451 ; infill
G1 X137.712 Y168.765 E81.95496 ; infill
G1 X168.765 Y137.712 E83.81310 ; infill
G1 X168.765 Y138.432 E83.84355 ; infill
G1 X138.432 Y168.765 E85.65863 ; infill
G1 X139.151 Y168.765 E85.68908 ; infill
G1 X168.765 Y139.151 E87.46109 ; infill
G1 X168.765 Y139.871 E87.49154 ; infill
G1 X139.871 Y168.765 E89.22050 ; infill
G1 X140.591 Y168.765 E89.25095 ; infill
G1 X168.765 Y140.591 E90.93683 ; infill
G1 X168.765 Y141.310 E90.96728 ; infill
G1 X141.310 Y168.765 E92.61011 ; infill
G1 X142.030 Y168.765 E92.64056 ; infill
G1 X168.765 Y142.030 E94.24032 ; infill
G1 X168.765 Y142.750 E94.27077 ; infill
G1 X142.750 Y168.765 E95.82748 ; infill
G1 X143.469 Y168.765 E95.85793 ; infill
G1 X168.765 Y143.469 E97.37156 ; infill
G1 X168.765 Y144.189 E97.40201 ; infill
G1 X144.189 Y168.765 E98.87259 ; infill
G1 X144.909 Y168.765 E98.90304 ; infill
G1 X168.765 Y144.909 E100.33055 ; infill
G1 X168.765 Y145.628 E100.36100 ; infill
G1 X145.628 Y168.765 E101.74545 ; infill
G1 X146.348 Y168.765 E101.77590 ; infill
G1 X168.765 Y146.348 E103.11729 ; infill
G1 X168.765 Y147.068 E103.14774 ; infill
G1 X147.068 Y168.765 E104.44606 ; infill
G1 X147.787 Y168.765 E104.47651 ; infill
G1 X168.765 Y147.787 E105.73178 ; infill
G1 X168.765 Y148.507 E105.76223 ; infill
G1 X148.507 Y168.765 E106.97443 ; infill
G1 X149.227 Y168.765 E107.00488 ; infill
G1 X168.765 Y149.227 E108.17401 ; infill
G1 X168.765 Y149.946 E108.20446 ; infill
G1 X149.946 Y168.765 E109.33054 ; infill
G1 X150.666 Y168.765 E109.36099 ; infill
G1 X168.765 Y150.666 E110.44400 ; infill
G1 X168.765 Y151.385 E110.47445 ; infill
G1 X151.385 Y168.765 E111.51440 ; infill
G1 X152.105 Y168.765 E111.54485 ; infill
G1 X168.765 Y152.105 E112.54173 ; infill
G1 X168.765 Y152.825 E112.57218 ; infill
G1 X152.825 Y168.765 E113.52601 ; infill
G1 X153.544 Y168.765 E113.55646 ; infill
G1 X168.765 Y153.544 E114.46722 ; infill
G1 X168.765 Y154.264 E114.49767 ; infill
G1 X154.264 Y168.765 E115.36537 ; infill
G1 X154.984 Y168.765 E115.39582 ; infill
G1 X168.765 Y154.984 E116.22045 ; infill
G1 X168.765 Y155.703 E116.25090 ; infill
G1 X155.703 Y168.765 E117.03248 ; infill
G1 X156.423 Y168.765 E117.06293 ; infill
G1 X168.765 Y156.423 E117.80144 ; infill
G1 X168.765 Y157.143 E117.83189 ; infill
G1 X157.143 Y168.765 E118.52733 ; infill
G1 X157.862 Y168.765 E118.55778 ; infill
G1 X168.765 Y157.862 E119.21017 ; infill
G1 X168.765 Y158.582 E119.24062 ; infill
G1 X158.582 Y168.765 E119.84994 ; infill
G1 X159.302 Y168.765 E119.88039 ; infill
G1 X168.765 Y159.302 E120.44665 ; infill
G1 X168.765 Y160.021 E120.47710 ; infill
G1 X160.021 Y168.765 E121.00030 ; infill
G1 X160.741 Y168.765 E121.03075 ; infill
G1 X168.765 Y160.741 E121.51088 ; infill
G1 X168.765 Y161.460 E121.54133 ; infill
G1 X161.460 Y168.765 E121.97840 ; infill
G1 X162.180 Y168.765 E122.00885 ; infill
G1 X168.765 Y162.180 E122.40286 ; infill
G1 X168.765 Y162.900 E122.43331 ; infill
G1 X162.900 Y168.765 E122.78426 ; infill
G1 X163.619 Y168.765 E122.81471 ; infill
G1 X168.765 Y163.619 E123.12259 ; infill
G1 X168.765 Y164.339 E123.15304 ; infill
G1 X164.339 Y168.765 E123.41786 ; infill
G1 X165.059 Y168.765 E123.44831 ; infill
G1 X168.765 Y165.059 E123.67007 ; infill
G1 X168.765 Y165.778 E123.70052 ; infill
G1 X165.778 Y168.765 E123.87922 ; infill
G1 X166.498 Y168.765 E123.90967 ; infill
G1 X168.765 Y166.498 E124.04530 ; infill
G1 X168.765 Y167.218 E124.07575 ; infill
G1 X167.218 Y168.765 E124.16832 ; infill
G1 X167.937 Y168.765 E124.19877 ; infill
G1 X168.765 Y167.937 E124.24828 ; infill
G1 X168.765 Y168.657 E124.27873 ; infill
G1 X168.657 Y168.765 E124.28517 ; infill
;announce new layer <1>
;---
M756 S0.2
M790 ;execute any new layer actions
;---
G1 Z0.400 F1800.000 ; move to next layer (1)
G1 X141.553 Y130.782 F1800.000 ; move to first perimeter point
G1 F1800
G1 X169.218 Y130.782 E125.45164 ; perimeter
